;FLAVOR:Marlin
;TIME:3237
;Filament used: 1.81333m
;Layer height: 0.2
;MINX:73.95
;MINY:79.25
;MINZ:0.2
;MAXX:161.05
;MAXY:155.75
;MAXZ:6.2
;Generated with Cura_SteamEngine 4.7.1
M140 S60
M105
M190 S60
M104 S200
M105
M109 S200
M82 ;absolute extrusion mode
; Ender 3 Custom Start G-code
G92 E0 ; Reset Extruder
G28 ; Home all axes
G1 Z2.0 F3000 ; Move Z Axis up little to prevent scratching of Heat Bed
G1 X0.1 Y20 Z0.3 F5000.0 ; Move to start position
G1 X0.1 Y200.0 Z0.3 F1500.0 E15 ; Draw the first line
G1 X0.4 Y200.0 Z0.3 F5000.0 ; Move to side a little
G1 X0.4 Y20 Z0.3 F1500.0 E30 ; Draw the second line
G92 E0 ; Reset Extruder
G1 Z2.0 F3000 ; Move Z Axis up little to prevent scratching of Heat Bed
G1 X5 Y20 Z0.3 F5000.0 ; Move over to prevent blob squish
G92 E0
G92 E0
G1 F2700 E-5
;LAYER_COUNT:31
;LAYER:0
M107
G0 F6000 X78.548 Y83.47 Z0.2
;TYPE:SKIRT
G1 F2700 E0
G1 F1200 X79.239 Y82.836 E0.03119
G1 X79.61 Y82.536 E0.04706
G1 X80.016 Y82.223 E0.06411
G1 X80.782 Y81.683 E0.09528
G1 X81.238 Y81.405 E0.11304
G1 X81.656 Y81.164 E0.12909
G1 X82.503 Y80.724 E0.16084
G1 X82.842 Y80.566 E0.17328
G1 X83.871 Y80.148 E0.21022
G1 X84.138 Y80.055 E0.21962
G1 X84.658 Y79.888 E0.23779
G1 X85.377 Y79.701 E0.2625
G1 X85.966 Y79.569 E0.28257
G1 X86.985 Y79.391 E0.31698
G1 X87.103 Y79.376 E0.32094
G1 X88.032 Y79.298 E0.35194
G1 X88.919 Y79.261 E0.38147
G1 X89.377 Y79.251 E0.39671
G1 X111.987 Y79.251 E1.14872
G1 X112.383 Y79.256 E1.16189
G1 X112.697 Y79.264 E1.17234
G1 X113.803 Y79.31 E1.20916
G1 X116.384 Y79.38 E1.29503
G1 X118.909 Y79.378 E1.37901
G1 X121.414 Y79.305 E1.46237
G1 X122.372 Y79.263 E1.49426
G1 X122.74 Y79.254 E1.5065
G1 X123.151 Y79.25 E1.52017
G1 X145.449 Y79.25 E2.26181
G1 X145.855 Y79.254 E2.27531
G1 X146.214 Y79.263 E2.28726
G1 X146.983 Y79.296 E2.31286
G1 X147.917 Y79.376 E2.34404
G1 X148.398 Y79.449 E2.36022
G1 X148.846 Y79.527 E2.37534
G1 X149.551 Y79.674 E2.39929
G1 X150.288 Y79.878 E2.42473
G1 X150.577 Y79.969 E2.43481
G1 X151.023 Y80.12 E2.45047
G1 X151.376 Y80.248 E2.46296
G1 X152.292 Y80.628 E2.49594
G1 X152.514 Y80.732 E2.50409
G1 X153.34 Y81.162 E2.53507
G1 X153.76 Y81.404 E2.55119
G1 X154.552 Y81.906 E2.58238
G1 X154.984 Y82.223 E2.6002
G1 X155.39 Y82.536 E2.61725
G1 X156.108 Y83.14 E2.64846
G1 X156.452 Y83.47 E2.66431
G1 X156.83 Y83.848 E2.68209
G1 X157.464 Y84.539 E2.71328
G1 X157.764 Y84.91 E2.72915
G1 X158.077 Y85.316 E2.7462
G1 X158.617 Y86.082 E2.77737
G1 X158.895 Y86.538 E2.79513
G1 X159.136 Y86.956 E2.81118
G1 X159.584 Y87.82 E2.84355
G1 X159.687 Y88.042 E2.85169
G1 X160.05 Y88.921 E2.88332
G1 X160.231 Y89.42 E2.90098
G1 X160.486 Y90.218 E2.92884
G1 X160.52 Y90.34 E2.93305
G1 X160.648 Y90.846 E2.95041
G1 X160.695 Y91.052 E2.95744
G1 X160.8 Y91.565 E2.97486
G1 X160.81 Y91.621 E2.97675
G1 X160.875 Y92.033 E2.99062
G1 X160.907 Y92.262 E2.99831
G1 X161.002 Y93.299 E3.03295
G1 X161.035 Y94.046 E3.05782
G1 X161.045 Y94.384 E3.06906
G1 X161.05 Y94.83 E3.0839
G1 X161.049 Y140.228 E4.59384
G1 X161.046 Y140.538 E4.60415
G1 X161.037 Y140.909 E4.6165
G1 X161.003 Y141.692 E4.64256
G1 X160.857 Y143.064 E4.68846
G1 X160.783 Y143.498 E4.7031
G1 X160.611 Y144.317 E4.73093
G1 X160.42 Y144.993 E4.7543
G1 X160.328 Y145.284 E4.76445
G1 X160.191 Y145.69 E4.7787
G1 X160.063 Y146.046 E4.79128
G1 X159.672 Y146.993 E4.82536
G1 X159.567 Y147.217 E4.83359
G1 X159.138 Y148.04 E4.86446
G1 X158.896 Y148.46 E4.88058
G1 X158.394 Y149.252 E4.91177
G1 X158.081 Y149.678 E4.92935
G1 X157.77 Y150.082 E4.94631
G1 X157.167 Y150.8 E4.97749
G1 X156.832 Y151.15 E4.9936
G1 X156.452 Y151.53 E5.01148
G1 X155.761 Y152.164 E5.04267
G1 X155.39 Y152.464 E5.05854
G1 X154.984 Y152.777 E5.07559
G1 X154.218 Y153.317 E5.10676
G1 X153.762 Y153.595 E5.12452
G1 X153.344 Y153.836 E5.14057
G1 X152.482 Y154.283 E5.17287
G1 X152.258 Y154.387 E5.18108
G1 X151.372 Y154.753 E5.21297
G1 X150.875 Y154.933 E5.23055
G1 X150.082 Y155.186 E5.25823
G1 X149.96 Y155.22 E5.26244
G1 X149.469 Y155.345 E5.2793
G1 X149.26 Y155.393 E5.28643
G1 X148.404 Y155.554 E5.3154
G1 X148.133 Y155.594 E5.32451
G1 X147.016 Y155.701 E5.36183
G1 X146.275 Y155.734 E5.3865
G1 X145.907 Y155.744 E5.39874
G1 X145.369 Y155.749 E5.41664
G1 X145.2 Y155.748 E5.42226
G1 X145.167 Y155.75 E5.42336
G1 X144.512 Y155.748 E5.44515
G1 X122.889 Y155.748 E6.16433
G1 X122.677 Y155.745 E6.17138
G1 X122.364 Y155.736 E6.1818
G1 X121.38 Y155.694 E6.21455
G1 X118.825 Y155.62 E6.29957
G1 X116.314 Y155.618 E6.38309
G1 X113.557 Y155.697 E6.47482
G1 X112.636 Y155.736 E6.50548
G1 X112.305 Y155.745 E6.51649
G1 X111.849 Y155.75 E6.53166
G1 X89.438 Y155.749 E7.27705
G1 X89.145 Y155.746 E7.2868
G1 X88.777 Y155.736 E7.29904
G1 X88.206 Y155.711 E7.31805
G1 X87.793 Y155.686 E7.33182
G1 X87.462 Y155.659 E7.34286
G1 X86.531 Y155.543 E7.37407
G1 X85.96 Y155.431 E7.39342
G1 X85.485 Y155.325 E7.40961
G1 X84.602 Y155.089 E7.44001
G1 X84.253 Y154.98 E7.45217
G1 X83.353 Y154.655 E7.48399
G1 X83.297 Y154.632 E7.48601
G1 X82.853 Y154.438 E7.50212
G1 X82.527 Y154.287 E7.51407
G1 X81.656 Y153.836 E7.54669
G1 X81.238 Y153.595 E7.56274
G1 X80.446 Y153.092 E7.59395
G1 X80.016 Y152.777 E7.61168
G1 X79.61 Y152.464 E7.62873
G1 X78.892 Y151.86 E7.65993
G1 X78.548 Y151.53 E7.67579
G1 X78.168 Y151.15 E7.69366
G1 X77.534 Y150.459 E7.72485
G1 X77.23 Y150.082 E7.74096
G1 X76.919 Y149.678 E7.75792
G1 X76.379 Y148.911 E7.78912
G1 X76.104 Y148.46 E7.80669
G1 X75.862 Y148.04 E7.82281
G1 X75.422 Y147.193 E7.85456
G1 X75.265 Y146.856 E7.86692
G1 X74.848 Y145.829 E7.90379
G1 X74.755 Y145.562 E7.91319
G1 X74.588 Y145.042 E7.93136
G1 X74.401 Y144.323 E7.95607
G1 X74.269 Y143.734 E7.97614
G1 X74.092 Y142.721 E8.01034
G1 X74.074 Y142.58 E8.01507
G1 X73.995 Y141.653 E8.04602
G1 X73.963 Y140.899 E8.07112
G1 X73.954 Y140.539 E8.08309
G1 X73.95 Y140.122 E8.09696
G1 X73.951 Y94.682 E9.60831
G1 X73.955 Y94.384 E9.61822
G1 X73.965 Y94.048 E9.6294
G1 X73.989 Y93.503 E9.64754
G1 X74.014 Y93.093 E9.6612
G1 X74.041 Y92.762 E9.67225
G1 X74.157 Y91.831 E9.70345
G1 X74.272 Y91.248 E9.72322
G1 X74.379 Y90.771 E9.73948
G1 X74.595 Y89.955 E9.76755
G1 X74.702 Y89.606 E9.77969
G1 X75.071 Y88.586 E9.81577
G1 X75.094 Y88.531 E9.81775
G1 X75.277 Y88.117 E9.83281
G1 X75.428 Y87.794 E9.84467
G1 X75.862 Y86.96 E9.87594
G1 X76.104 Y86.54 E9.89206
G1 X76.606 Y85.748 E9.92325
G1 X76.919 Y85.322 E9.94083
G1 X77.23 Y84.918 E9.95779
G1 X77.833 Y84.2 E9.98897
G1 X78.168 Y83.85 E10.00509
G1 X78.548 Y83.47 E10.02296
G0 F6000 X78.831 Y83.753
G1 F1200 X79.854 Y82.853 E10.06828
G1 X80.26 Y82.54 E10.08533
G1 X81.013 Y82.01 E10.11596
G1 X81.437 Y81.752 E10.13246
G1 X81.855 Y81.511 E10.14851
G1 X82.672 Y81.086 E10.17914
G1 X83.011 Y80.928 E10.19158
G1 X84.002 Y80.526 E10.22715
G1 X84.269 Y80.433 E10.23656
G1 X84.772 Y80.272 E10.25412
G1 X85.465 Y80.092 E10.27794
G1 X86.054 Y79.96 E10.29801
G1 X87.035 Y79.788 E10.33114
G1 X87.153 Y79.773 E10.33509
G1 X88.048 Y79.697 E10.36497
G1 X88.935 Y79.66 E10.3945
G1 X89.377 Y79.651 E10.4092
G1 X111.982 Y79.651 E11.16105
G1 X112.378 Y79.656 E11.17422
G1 X112.681 Y79.664 E11.1843
G1 X113.776 Y79.709 E11.22075
G1 X116.374 Y79.78 E11.30719
G1 X118.92 Y79.778 E11.39187
G1 X121.443 Y79.704 E11.47582
G1 X122.389 Y79.663 E11.50732
G1 X122.744 Y79.654 E11.51913
G1 X123.151 Y79.65 E11.53267
G1 X145.449 Y79.65 E12.2743
G1 X145.851 Y79.654 E12.28767
G1 X146.196 Y79.663 E12.29915
G1 X146.965 Y79.696 E12.32475
G1 X148.329 Y79.843 E12.37038
G1 X148.777 Y79.921 E12.38551
G1 X149.458 Y80.063 E12.40864
G1 X150.168 Y80.259 E12.43314
G1 X150.457 Y80.35 E12.44322
G1 X150.886 Y80.496 E12.45829
G1 X151.239 Y80.624 E12.47078
G1 X152.123 Y80.99 E12.5026
G1 X152.345 Y81.094 E12.51076
G1 X153.14 Y81.509 E12.54058
G1 X153.56 Y81.751 E12.55671
G1 X154.337 Y82.244 E12.58731
G1 X154.74 Y82.54 E12.60394
G1 X155.146 Y82.853 E12.62099
G1 X156.169 Y83.753 E12.66631
G1 X156.547 Y84.131 E12.68409
G1 X157.447 Y85.154 E12.72941
G1 X157.76 Y85.56 E12.74646
G1 X158.29 Y86.313 E12.77709
G1 X158.548 Y86.737 E12.7936
G1 X158.789 Y87.155 E12.80964
G1 X159.221 Y87.989 E12.84088
G1 X159.324 Y88.211 E12.84902
G1 X159.674 Y89.058 E12.8795
G1 X159.855 Y89.557 E12.89716
G1 X160.101 Y90.325 E12.92398
G1 X160.135 Y90.447 E12.92819
G1 X160.258 Y90.935 E12.94493
G1 X160.305 Y91.141 E12.95196
G1 X160.406 Y91.636 E12.96876
G1 X160.479 Y92.088 E12.98399
G1 X160.511 Y92.317 E12.99168
G1 X160.603 Y93.316 E13.02505
G1 X160.636 Y94.063 E13.04992
G1 X160.645 Y94.389 E13.06077
G1 X160.65 Y94.83 E13.07543
G1 X160.65 Y140.225 E14.58528
G1 X160.647 Y140.535 E14.59559
G1 X160.637 Y140.892 E14.60747
G1 X160.603 Y141.675 E14.63353
G1 X160.462 Y142.997 E14.67775
G1 X160.388 Y143.431 E14.6924
G1 X160.223 Y144.22 E14.71921
G1 X160.039 Y144.872 E14.74174
G1 X159.947 Y145.163 E14.75189
G1 X159.815 Y145.554 E14.76562
G1 X159.687 Y145.91 E14.7782
G1 X159.31 Y146.823 E14.81105
G1 X159.205 Y147.047 E14.81928
G1 X158.791 Y147.84 E14.84903
G1 X158.549 Y148.26 E14.86516
G1 X158.056 Y149.037 E14.89576
G1 X157.764 Y149.434 E14.91215
G1 X157.453 Y149.838 E14.92911
G1 X156.549 Y150.867 E14.97467
G1 X156.169 Y151.247 E14.99254
G1 X155.146 Y152.147 E15.03786
G1 X154.74 Y152.46 E15.05491
G1 X153.987 Y152.99 E15.08554
G1 X153.563 Y153.248 E15.10205
G1 X153.145 Y153.489 E15.11809
G1 X152.314 Y153.92 E15.14923
G1 X152.09 Y154.024 E15.15744
G1 X151.236 Y154.376 E15.18817
G1 X150.739 Y154.556 E15.20575
G1 X149.975 Y154.801 E15.23243
G1 X149.853 Y154.835 E15.23664
G1 X149.38 Y154.955 E15.25287
G1 X149.171 Y155.003 E15.26001
G1 X148.346 Y155.158 E15.28793
G1 X148.075 Y155.198 E15.29704
G1 X146.999 Y155.302 E15.33299
G1 X146.258 Y155.335 E15.35766
G1 X145.902 Y155.344 E15.36951
G1 X145.371 Y155.349 E15.38717
G1 X145.202 Y155.348 E15.39279
G1 X145.169 Y155.35 E15.39389
G1 X144.513 Y155.348 E15.41571
G1 X122.895 Y155.348 E16.13473
G1 X122.683 Y155.345 E16.14178
G1 X122.381 Y155.336 E16.15183
G1 X121.481 Y155.298 E16.18179
G1 X118.802 Y155.22 E16.27093
G1 X116.304 Y155.218 E16.35401
G1 X113.528 Y155.297 E16.44638
G1 X112.619 Y155.336 E16.47664
G1 X112.3 Y155.345 E16.48726
G1 X111.849 Y155.35 E16.50226
G1 X89.442 Y155.349 E17.24752
G1 X89.149 Y155.346 E17.25726
G1 X88.794 Y155.337 E17.26907
G1 X88.223 Y155.312 E17.28808
G1 X87.825 Y155.287 E17.30135
G1 X87.494 Y155.26 E17.31239
G1 X86.581 Y155.145 E17.343
G1 X86.047 Y155.041 E17.36109
G1 X85.572 Y154.935 E17.37728
G1 X84.721 Y154.707 E17.40658
G1 X84.372 Y154.598 E17.41874
G1 X83.505 Y154.285 E17.4494
G1 X83.449 Y154.262 E17.45142
G1 X83.021 Y154.075 E17.46695
G1 X82.695 Y153.924 E17.4789
G1 X81.855 Y153.489 E17.51036
G1 X81.437 Y153.248 E17.52641
G1 X80.661 Y152.754 E17.55701
G1 X80.26 Y152.46 E17.57354
G1 X79.854 Y152.147 E17.5906
G1 X78.831 Y151.247 E17.63591
G1 X78.451 Y150.867 E17.65379
G1 X77.547 Y149.838 E17.69934
G1 X77.236 Y149.434 E17.7163
G1 X76.706 Y148.681 E17.74693
G1 X76.451 Y148.26 E17.7633
G1 X76.209 Y147.84 E17.77942
G1 X75.785 Y147.024 E17.81001
G1 X75.628 Y146.687 E17.82237
G1 X75.226 Y145.698 E17.85788
G1 X75.133 Y145.431 E17.86728
G1 X74.972 Y144.928 E17.88485
G1 X74.792 Y144.235 E17.90866
G1 X74.66 Y143.646 E17.92874
G1 X74.488 Y142.67 E17.9617
G1 X74.47 Y142.529 E17.96643
G1 X74.395 Y141.636 E17.99624
G1 X74.363 Y140.882 E18.02134
G1 X74.353 Y140.535 E18.03288
G1 X74.35 Y140.224 E18.04323
G1 X74.351 Y94.688 E19.55776
G1 X74.355 Y94.39 E19.56767
G1 X74.364 Y94.066 E19.57845
G1 X74.388 Y93.521 E19.5966
G1 X74.413 Y93.125 E19.60979
G1 X74.44 Y92.794 E19.62084
G1 X74.555 Y91.881 E19.65145
G1 X74.662 Y91.336 E19.66992
G1 X74.769 Y90.859 E19.68618
G1 X74.978 Y90.072 E19.71326
G1 X75.085 Y89.723 E19.7254
G1 X75.44 Y88.74 E19.76016
G1 X75.463 Y88.685 E19.76215
G1 X75.639 Y88.286 E19.77665
G1 X75.79 Y87.963 E19.78851
G1 X76.209 Y87.16 E19.81864
G1 X76.451 Y86.74 E19.83476
G1 X76.944 Y85.963 E19.86536
G1 X77.236 Y85.566 E19.88176
G1 X77.547 Y85.162 E19.89871
G1 X78.451 Y84.133 E19.94427
G1 X78.831 Y83.753 E19.96214
G0 F6000 X79.114 Y84.036
G1 F1200 X80.098 Y83.17 E20.00574
G1 X80.504 Y82.857 E20.02279
G1 X81.243 Y82.338 E20.05283
G1 X81.637 Y82.098 E20.06817
G1 X82.055 Y81.857 E20.08422
G1 X82.841 Y81.449 E20.11367
G1 X83.18 Y81.291 E20.12611
G1 X84.134 Y80.904 E20.16035
G1 X84.401 Y80.811 E20.16976
G1 X84.885 Y80.655 E20.18667
G1 X85.552 Y80.482 E20.20959
G1 X86.141 Y80.35 E20.22967
G1 X87.086 Y80.184 E20.26158
G1 X87.204 Y80.169 E20.26553
G1 X88.065 Y80.097 E20.29427
G1 X88.952 Y80.06 E20.3238
G1 X89.377 Y80.051 E20.33794
G1 X111.977 Y80.051 E21.08962
G1 X112.373 Y80.056 E21.10279
G1 X112.664 Y80.064 E21.11247
G1 X113.747 Y80.109 E21.14852
G1 X116.364 Y80.18 E21.2356
G1 X118.898 Y80.178 E21.31988
G1 X121.541 Y80.101 E21.40782
G1 X122.406 Y80.063 E21.43662
G1 X122.748 Y80.054 E21.448
G1 X123.151 Y80.05 E21.4614
G1 X145.449 Y80.05 E22.20304
G1 X145.846 Y80.054 E22.21624
G1 X146.179 Y80.062 E22.22732
G1 X146.948 Y80.095 E22.25292
G1 X148.261 Y80.237 E22.29685
G1 X148.709 Y80.315 E22.31197
G1 X149.364 Y80.452 E22.33423
G1 X150.047 Y80.641 E22.3578
G1 X150.336 Y80.732 E22.36788
G1 X150.75 Y80.872 E22.38241
G1 X151.103 Y81 E22.3949
G1 X151.953 Y81.352 E22.4255
G1 X152.175 Y81.456 E22.43365
G1 X152.94 Y81.855 E22.46235
G1 X153.36 Y82.097 E22.47847
G1 X154.122 Y82.582 E22.50852
G1 X154.496 Y82.857 E22.52396
G1 X154.902 Y83.17 E22.54101
G1 X155.886 Y84.036 E22.5846
G1 X156.264 Y84.414 E22.60238
G1 X157.13 Y85.398 E22.64598
G1 X157.443 Y85.804 E22.66303
G1 X157.962 Y86.543 E22.69307
G1 X158.202 Y86.937 E22.70841
G1 X158.443 Y87.355 E22.72446
G1 X158.859 Y88.157 E22.75451
G1 X158.962 Y88.379 E22.76265
G1 X159.298 Y89.194 E22.79197
G1 X159.479 Y89.693 E22.80962
G1 X159.716 Y90.433 E22.83547
G1 X159.75 Y90.555 E22.83968
G1 X159.868 Y91.024 E22.85577
G1 X159.915 Y91.23 E22.86279
G1 X160.012 Y91.706 E22.87895
G1 X160.083 Y92.143 E22.89368
G1 X160.115 Y92.372 E22.90137
G1 X160.203 Y93.334 E22.9335
G1 X160.236 Y94.081 E22.95837
G1 X160.245 Y94.395 E22.96881
G1 X160.25 Y94.83 E22.98328
G1 X160.25 Y140.221 E24.49299
G1 X160.247 Y140.531 E24.5033
G1 X160.237 Y140.874 E24.51472
G1 X160.203 Y141.657 E24.54078
G1 X160.068 Y142.929 E24.58333
G1 X159.994 Y143.363 E24.59797
G1 X159.834 Y144.123 E24.6238
G1 X159.658 Y144.752 E24.64553
G1 X159.566 Y145.043 E24.65568
G1 X159.438 Y145.419 E24.66889
G1 X159.31 Y145.775 E24.68147
G1 X158.948 Y146.653 E24.71306
G1 X158.843 Y146.877 E24.72129
G1 X158.445 Y147.64 E24.74991
G1 X158.203 Y148.06 E24.76603
G1 X157.718 Y148.822 E24.79608
G1 X157.448 Y149.19 E24.81126
G1 X157.137 Y149.594 E24.82821
G1 X156.266 Y150.584 E24.87207
G1 X155.886 Y150.964 E24.88994
G1 X154.902 Y151.83 E24.93354
G1 X154.496 Y152.143 E24.95059
G1 X153.757 Y152.662 E24.98063
G1 X153.363 Y152.902 E24.99597
G1 X152.945 Y153.143 E25.01202
G1 X152.145 Y153.557 E25.04198
G1 X151.921 Y153.661 E25.05019
G1 X151.099 Y154 E25.07977
G1 X150.602 Y154.18 E25.09735
G1 X149.867 Y154.416 E25.12302
G1 X149.745 Y154.45 E25.12724
G1 X149.29 Y154.565 E25.14285
G1 X149.081 Y154.613 E25.14998
G1 X148.287 Y154.763 E25.17685
G1 X148.016 Y154.803 E25.18597
G1 X146.981 Y154.902 E25.22055
G1 X146.24 Y154.935 E25.24522
G1 X145.898 Y154.944 E25.2566
G1 X145.372 Y154.949 E25.27409
G1 X145.204 Y154.948 E25.27968
G1 X145.17 Y154.95 E25.28081
G1 X144.514 Y154.948 E25.30263
G1 X122.901 Y154.948 E26.02148
G1 X122.689 Y154.945 E26.02853
G1 X122.398 Y154.937 E26.03822
G1 X121.438 Y154.896 E26.07017
G1 X118.813 Y154.82 E26.15752
G1 X116.293 Y154.818 E26.24133
G1 X113.57 Y154.896 E26.33194
G1 X112.602 Y154.937 E26.36416
G1 X112.295 Y154.945 E26.37438
G1 X111.849 Y154.95 E26.38921
G1 X89.447 Y154.949 E27.13431
G1 X89.154 Y154.946 E27.14405
G1 X88.812 Y154.937 E27.15543
G1 X88.241 Y154.912 E27.17444
G1 X87.858 Y154.888 E27.1872
G1 X87.527 Y154.861 E27.19825
G1 X86.631 Y154.748 E27.22829
G1 X86.134 Y154.65 E27.24514
G1 X85.659 Y154.544 E27.26132
G1 X84.84 Y154.325 E27.28952
G1 X84.491 Y154.216 E27.30168
G1 X83.657 Y153.915 E27.33117
G1 X83.601 Y153.892 E27.33319
G1 X83.189 Y153.712 E27.34814
G1 X82.863 Y153.561 E27.36009
G1 X82.055 Y153.143 E27.39035
G1 X81.637 Y152.902 E27.40639
G1 X80.876 Y152.416 E27.43643
G1 X80.504 Y152.143 E27.45177
G1 X80.098 Y151.83 E27.46882
G1 X79.114 Y150.964 E27.51242
G1 X78.734 Y150.584 E27.5303
