;FLAVOR:Marlin
;TIME:2453
;Filament used: 1.24658m
;Layer height: 0.2
;MINX:100.5
;MINY:91.5
;MINZ:0.2
;MAXX:134.5
;MAXY:143.5
;MAXZ:25
;Generated with Cura_SteamEngine 4.7.1
M140 S60
M105
M190 S60
M104 S200
M105
M109 S200
M82 ;absolute extrusion mode
; Ender 3 Custom Start G-code
G92 E0 ; Reset Extruder
G28 ; Home all axes
G1 Z2.0 F3000 ; Move Z Axis up little to prevent scratching of Heat Bed
G1 X0.1 Y20 Z0.3 F5000.0 ; Move to start position
G1 X0.1 Y200.0 Z0.3 F1500.0 E15 ; Draw the first line
G1 X0.4 Y200.0 Z0.3 F5000.0 ; Move to side a little
G1 X0.4 Y20 Z0.3 F1500.0 E30 ; Draw the second line
G92 E0 ; Reset Extruder
G1 Z2.0 F3000 ; Move Z Axis up little to prevent scratching of Heat Bed
G1 X5 Y20 Z0.3 F5000.0 ; Move over to prevent blob squish
G92 E0
G92 E0
G1 F2700 E-5
;LAYER_COUNT:125
;LAYER:0
M107
G0 F6000 X103.698 Y94.764 Z0.2
;TYPE:SKIRT
G1 F2700 E0
G1 F1200 X104.386 Y94.127 E0.03119
G1 X105.126 Y93.551 E0.06237
G1 X105.912 Y93.039 E0.09357
G1 X106.739 Y92.597 E0.12476
G1 X107.601 Y92.227 E0.15596
G1 X108.491 Y91.931 E0.18716
G1 X109.403 Y91.713 E0.21835
G1 X110.33 Y91.572 E0.24953
G1 X111.201 Y91.513 E0.27857
G1 X111.522 Y91.504 E0.28925
G1 X111.83 Y91.5 E0.29949
G1 X116.516 Y91.5 E0.45535
G1 X117.924 Y91.505 E0.50218
G1 X118.595 Y91.5 E0.5245
G1 X122.951 Y91.501 E0.66938
G1 X123.649 Y91.511 E0.6926
G1 X124.585 Y91.565 E0.72378
G1 X125.513 Y91.697 E0.75496
G1 X126.427 Y91.909 E0.78617
G1 X127.319 Y92.198 E0.81735
G1 X128.184 Y92.561 E0.84855
G1 X129.014 Y92.997 E0.87974
G1 X129.805 Y93.502 E0.91095
G1 X130.549 Y94.073 E0.94214
G1 X131.242 Y94.705 E0.97334
G1 X131.879 Y95.393 E1.00452
G1 X132.454 Y96.134 E1.03572
G1 X132.965 Y96.92 E1.0669
G1 X133.407 Y97.748 E1.09812
G1 X133.776 Y98.61 E1.1293
G1 X134.071 Y99.5 E1.16049
G1 X134.289 Y100.412 E1.19168
G1 X134.429 Y101.34 E1.22289
G1 X134.487 Y102.201 E1.25159
G1 X134.496 Y102.521 E1.26224
G1 X134.5 Y102.83 E1.27252
G1 X134.499 Y104.97 E1.3437
G1 X134.483 Y106.114 E1.38175
G1 X134.483 Y108.754 E1.46956
G1 X134.498 Y109.461 E1.49308
G1 X134.5 Y109.732 E1.50209
G1 X134.499 Y124.97 E2.00891
G1 X134.483 Y126.114 E2.04696
G1 X134.483 Y128.754 E2.13477
G1 X134.498 Y129.461 E2.15829
G1 X134.5 Y129.732 E2.1673
G1 X134.499 Y131.9 E2.23941
G1 X134.49 Y132.627 E2.26359
G1 X134.439 Y133.564 E2.2948
G1 X134.307 Y134.492 E2.32598
G1 X134.098 Y135.406 E2.35716
G1 X133.811 Y136.299 E2.38836
G1 X133.449 Y137.165 E2.41958
G1 X133.015 Y137.996 E2.45076
G1 X132.511 Y138.787 E2.48196
G1 X131.942 Y139.532 E2.51313
G1 X131.311 Y140.227 E2.54436
G1 X130.624 Y140.865 E2.57554
G1 X129.885 Y141.442 E2.60672
G1 X129.099 Y141.954 E2.63792
G1 X128.273 Y142.397 E2.6691
G1 X127.411 Y142.769 E2.70032
G1 X126.522 Y143.065 E2.73149
G1 X125.61 Y143.285 E2.76269
G1 X124.683 Y143.426 E2.79388
G1 X123.799 Y143.487 E2.82335
G1 X123.478 Y143.496 E2.83403
G1 X123.17 Y143.5 E2.84428
G1 X118.484 Y143.5 E3.00013
G1 X117.076 Y143.495 E3.04696
G1 X116.405 Y143.5 E3.06928
G1 X112.065 Y143.499 E3.21363
G1 X111.367 Y143.49 E3.23685
G1 X110.431 Y143.438 E3.26803
G1 X109.502 Y143.306 E3.29924
G1 X108.588 Y143.096 E3.33043
G1 X107.695 Y142.809 E3.36163
G1 X106.83 Y142.446 E3.39283
G1 X105.999 Y142.012 E3.42401
G1 X105.208 Y141.508 E3.4552
G1 X104.463 Y140.938 E3.4864
G1 X103.769 Y140.307 E3.5176
G1 X103.132 Y139.62 E3.54876
G1 X102.555 Y138.88 E3.57997
G1 X102.043 Y138.094 E3.61117
G1 X101.6 Y137.267 E3.64237
G1 X101.229 Y136.406 E3.67356
G1 X100.933 Y135.516 E3.70475
G1 X100.714 Y134.604 E3.73595
G1 X100.573 Y133.677 E3.76714
G1 X100.513 Y132.788 E3.79677
G1 X100.504 Y132.455 E3.80785
G1 X100.5 Y132.158 E3.81773
G1 X100.501 Y130.03 E3.88851
G1 X100.517 Y128.86 E3.92743
G1 X100.517 Y126.246 E4.01437
G1 X100.502 Y125.539 E4.03789
G1 X100.5 Y125.268 E4.0469
G1 X100.501 Y110.03 E4.55372
G1 X100.517 Y108.86 E4.59264
G1 X100.517 Y106.246 E4.67958
G1 X100.502 Y105.539 E4.7031
G1 X100.5 Y105.268 E4.71211
G1 X100.501 Y103.025 E4.78672
G1 X100.51 Y102.36 E4.80884
G1 X100.563 Y101.424 E4.84002
G1 X100.695 Y100.495 E4.87123
G1 X100.906 Y99.581 E4.90243
G1 X101.194 Y98.689 E4.9336
G1 X101.557 Y97.824 E4.9648
G1 X101.992 Y96.993 E4.996
G1 X102.496 Y96.203 E5.02717
G1 X103.066 Y95.458 E5.05837
G1 X103.698 Y94.764 E5.08959
G0 F6000 X104.089 Y94.939
G1 F1200 X104.774 Y94.323 E5.12023
G1 X105.51 Y93.77 E5.15085
G1 X106.291 Y93.282 E5.18148
G1 X107.111 Y92.864 E5.21209
G1 X107.965 Y92.519 E5.24272
G1 X108.845 Y92.249 E5.27334
G1 X109.745 Y92.057 E5.30395
G1 X110.659 Y91.943 E5.33458
G1 X111.212 Y91.913 E5.353
G1 X111.533 Y91.904 E5.36368
G1 X111.83 Y91.9 E5.37356
G1 X116.515 Y91.9 E5.52938
G1 X117.926 Y91.905 E5.57631
G1 X118.598 Y91.9 E5.59867
G1 X122.945 Y91.901 E5.74325
G1 X123.643 Y91.911 E5.76647
G1 X124.562 Y91.964 E5.79708
G1 X125.473 Y92.097 E5.8277
G1 X126.369 Y92.308 E5.85832
G1 X127.243 Y92.596 E5.88893
G1 X128.09 Y92.959 E5.91958
G1 X128.901 Y93.394 E5.95019
G1 X129.671 Y93.898 E5.98079
G1 X130.395 Y94.467 E6.01142
G1 X131.067 Y95.097 E6.04206
G1 X131.682 Y95.782 E6.07268
G1 X132.235 Y96.518 E6.1033
G1 X132.722 Y97.299 E6.13391
G1 X133.139 Y98.12 E6.16454
G1 X133.484 Y98.974 E6.19517
G1 X133.753 Y99.854 E6.22578
G1 X133.945 Y100.755 E6.25642
G1 X134.058 Y101.668 E6.28701
G1 X134.087 Y102.212 E6.30513
G1 X134.096 Y102.532 E6.31578
G1 X134.1 Y102.83 E6.32569
G1 X134.099 Y104.964 E6.39667
G1 X134.083 Y106.108 E6.43472
G1 X134.083 Y108.763 E6.52303
G1 X134.098 Y109.464 E6.54635
G1 X134.1 Y109.735 E6.55536
G1 X134.099 Y124.964 E7.06188
G1 X134.083 Y126.108 E7.09994
G1 X134.083 Y128.763 E7.18824
G1 X134.098 Y129.464 E7.21156
G1 X134.1 Y129.735 E7.22058
G1 X134.099 Y131.895 E7.29242
G1 X134.09 Y132.622 E7.3166
G1 X134.039 Y133.541 E7.34721
G1 X133.908 Y134.453 E7.37786
G1 X133.698 Y135.349 E7.40847
G1 X133.412 Y136.224 E7.43908
G1 X133.051 Y137.071 E7.46971
G1 X132.617 Y137.883 E7.50033
G1 X132.115 Y138.655 E7.53096
G1 X131.547 Y139.38 E7.56159
G1 X130.919 Y140.053 E7.59221
G1 X130.235 Y140.669 E7.62282
G1 X129.5 Y141.223 E7.65343
G1 X128.72 Y141.712 E7.68405
G1 X127.9 Y142.131 E7.71468
G1 X127.047 Y142.477 E7.7453
G1 X126.167 Y142.748 E7.77592
G1 X125.267 Y142.941 E7.80654
G1 X124.353 Y143.056 E7.83718
G1 X123.788 Y143.087 E7.856
G1 X123.467 Y143.096 E7.86668
G1 X123.17 Y143.1 E7.87656
G1 X118.485 Y143.1 E8.03238
G1 X117.074 Y143.095 E8.07931
G1 X116.402 Y143.1 E8.10166
G1 X112.07 Y143.099 E8.24575
G1 X111.372 Y143.09 E8.26896
G1 X110.453 Y143.038 E8.29958
G1 X109.542 Y142.907 E8.33019
G1 X108.646 Y142.697 E8.3608
G1 X107.771 Y142.41 E8.39143
G1 X106.924 Y142.048 E8.42206
G1 X106.112 Y141.614 E8.45269
G1 X105.341 Y141.112 E8.48329
G1 X104.616 Y140.544 E8.51392
G1 X103.943 Y139.915 E8.54456
G1 X103.328 Y139.231 E8.57515
G1 X102.774 Y138.496 E8.60576
G1 X102.286 Y137.715 E8.63639
G1 X101.867 Y136.895 E8.66702
G1 X101.521 Y136.042 E8.69764
G1 X101.251 Y135.162 E8.72825
G1 X101.058 Y134.261 E8.7589
G1 X100.944 Y133.348 E8.7895
G1 X100.913 Y132.777 E8.80852
G1 X100.904 Y132.444 E8.8196
G1 X100.9 Y132.158 E8.82912
G1 X100.901 Y130.036 E8.89969
G1 X100.917 Y128.86 E8.93881
G1 X100.917 Y126.237 E9.02605
G1 X100.902 Y125.536 E9.04937
G1 X100.9 Y125.265 E9.05839
G1 X100.901 Y110.036 E9.5649
G1 X100.917 Y108.86 E9.60402
G1 X100.917 Y106.237 E9.69126
G1 X100.902 Y105.536 E9.71458
G1 X100.9 Y105.265 E9.7236
G1 X100.901 Y103.031 E9.7979
G1 X100.91 Y102.366 E9.82002
G1 X100.962 Y101.446 E9.85067
G1 X101.094 Y100.535 E9.88129
G1 X101.305 Y99.639 E9.9119
G1 X101.592 Y98.764 E9.94253
G1 X101.955 Y97.918 E9.97315
G1 X102.389 Y97.106 E10.00377
G1 X102.892 Y96.335 E10.03439
G1 X103.461 Y95.611 E10.06502
G1 X104.089 Y94.939 E10.09561
G0 F6000 X104.481 Y95.117
G1 F1200 X105.162 Y94.524 E10.12564
G1 X105.894 Y93.994 E10.1557
G1 X106.669 Y93.531 E10.18573
G1 X107.482 Y93.138 E10.21576
G1 X108.327 Y92.818 E10.24581
G1 X109.196 Y92.575 E10.27583
G1 X110.084 Y92.409 E10.30587
G1 X111.223 Y92.313 E10.34389
G1 X111.544 Y92.304 E10.35457
G1 X111.83 Y92.3 E10.36408
G1 X116.513 Y92.3 E10.51984
G1 X117.927 Y92.305 E10.56687
G1 X118.601 Y92.3 E10.58929
G1 X122.939 Y92.301 E10.73357
G1 X123.637 Y92.311 E10.75679
G1 X124.539 Y92.364 E10.78684
G1 X125.432 Y92.496 E10.81687
G1 X126.31 Y92.707 E10.8469
G1 X127.166 Y92.995 E10.87694
G1 X127.993 Y93.357 E10.90696
G1 X128.785 Y93.792 E10.93702
G1 X129.536 Y94.294 E10.96706
G1 X130.239 Y94.861 E10.9971
G1 X130.889 Y95.488 E11.02714
G1 X131.481 Y96.17 E11.05718
G1 X132.011 Y96.901 E11.08721
G1 X132.473 Y97.677 E11.11725
G1 X132.866 Y98.49 E11.14728
G1 X133.184 Y99.335 E11.17731
G1 X133.427 Y100.205 E11.20735
G1 X133.592 Y101.093 E11.23739
G1 X133.687 Y102.223 E11.27511
G1 X133.696 Y102.543 E11.28576
G1 X133.7 Y102.83 E11.2953
G1 X133.699 Y104.959 E11.36612
G1 X133.683 Y106.103 E11.40417
G1 X133.683 Y108.727 E11.49144
G1 X133.696 Y109.318 E11.51111
G1 X133.7 Y109.738 E11.52508
G1 X133.699 Y124.959 E12.03133
G1 X133.683 Y126.103 E12.06938
G1 X133.683 Y128.727 E12.15666
G1 X133.696 Y129.318 E12.17632
G1 X133.7 Y129.738 E12.19029
G1 X133.699 Y131.89 E12.26186
G1 X133.69 Y132.617 E12.28604
G1 X133.639 Y133.519 E12.31609
G1 X133.508 Y134.413 E12.34615
G1 X133.299 Y135.291 E12.37616
G1 X133.013 Y136.148 E12.40621
G1 X132.652 Y136.976 E12.43626
G1 X132.22 Y137.768 E12.46626
G1 X131.719 Y138.52 E12.49632
G1 X131.153 Y139.224 E12.52636
G1 X130.528 Y139.875 E12.55638
G1 X129.847 Y140.469 E12.58643
G1 X129.116 Y141 E12.61648
G1 X128.342 Y141.464 E12.6465
G1 X127.529 Y141.858 E12.67655
G1 X126.685 Y142.178 E12.70657
G1 X125.815 Y142.423 E12.73663
G1 X124.928 Y142.589 E12.76664
G1 X123.777 Y142.687 E12.80506
G1 X123.456 Y142.696 E12.81574
G1 X123.17 Y142.7 E12.82526
G1 X118.487 Y142.7 E12.98102
G1 X117.073 Y142.695 E13.02805
G1 X116.399 Y142.7 E13.05046
G1 X112.075 Y142.699 E13.19428
G1 X111.377 Y142.69 E13.2175
G1 X110.476 Y142.639 E13.24751
G1 X109.582 Y142.507 E13.27757
G1 X108.704 Y142.298 E13.30759
G1 X107.847 Y142.011 E13.33765
G1 X107.02 Y141.65 E13.36766
G1 X106.227 Y141.217 E13.39771
G1 X105.476 Y140.716 E13.42774
G1 X104.772 Y140.15 E13.45778
G1 X104.121 Y139.524 E13.48782
G1 X103.528 Y138.843 E13.51786
G1 X102.998 Y138.112 E13.54789
G1 X102.534 Y137.337 E13.57793
G1 X102.14 Y136.524 E13.60798
G1 X101.82 Y135.68 E13.638
G1 X101.576 Y134.81 E13.66805
G1 X101.41 Y133.922 E13.6981
G1 X101.313 Y132.767 E13.73665
G1 X101.304 Y132.434 E13.74773
G1 X101.3 Y132.158 E13.75691
G1 X101.301 Y130.041 E13.82732
G1 X101.317 Y128.897 E13.86538
G1 X101.317 Y126.273 E13.95265
G1 X101.304 Y125.682 E13.97231
G1 X101.3 Y125.262 E13.98628
G1 X101.301 Y110.041 E14.49253
G1 X101.317 Y108.897 E14.53059
G1 X101.317 Y106.273 E14.61786
G1 X101.304 Y105.682 E14.63752
G1 X101.3 Y105.262 E14.65149
G1 X101.301 Y103.036 E14.72553
G1 X101.31 Y102.371 E14.74765
G1 X101.362 Y101.469 E14.7777
G1 X101.494 Y100.576 E14.80772
G1 X101.704 Y99.698 E14.83775
G1 X101.991 Y98.841 E14.86781
G1 X102.353 Y98.014 E14.89784
G1 X102.786 Y97.222 E14.92786
G1 X103.288 Y96.471 E14.9579
G1 X103.855 Y95.767 E14.98797
G1 X104.481 Y95.117 E15.01798
G1 F2700 E10.01798
;MESH:Arrow_Support.stl
G0 F6000 X110.847 Y126.153
G0 X118.664 Y128.835
G0 X118.664 Y129.914
G0 X119.65 Y131.1
;TYPE:WALL-INNER
G1 F2700 E15.01798
G1 F1200 X119.65 Y130.9 E15.02464
G1 X122.1 Y130.9 E15.10612
G1 X122.1 Y131.1 E15.11277
G1 X119.65 Y131.1 E15.15362
G0 F6000 X119.25 Y131.5
G1 F1200 X119.25 Y130.5 E15.18688
G1 X122.5 Y130.5 E15.29498
G1 X122.5 Y131.5 E15.32824
G1 X119.25 Y131.5 E15.43633
G0 F6000 X118.85 Y131.9
G1 F1200 X118.85 Y130.1 E15.4962
G1 X122.9 Y130.1 E15.6309
G1 X122.9 Y131.9 E15.69077
G1 X118.85 Y131.9 E15.82548
G0 F6000 X118.45 Y132.3
;TYPE:WALL-OUTER
G1 F1200 X118.45 Y129.7 E15.91195
G1 X123.3 Y129.7 E16.07326
G1 X123.3 Y132.3 E16.15974
G1 X118.45 Y132.3 E16.32105
G0 F6000 X118.932 Y131.7
G1 F2700 E11.32105
G0 F6000 X118.67 Y131.1
G0 X116.33 Y131.1
G0 X115.35 Y131.1
;TYPE:WALL-INNER
G1 F2700 E16.32105
G1 F1200 X112.9 Y131.1 E16.40254
G1 X112.9 Y130.9 E16.40919
G1 X115.35 Y130.9 E16.45004
G1 X115.35 Y131.1 E16.45669
G0 F6000 X115.75 Y131.5
G1 F1200 X112.5 Y131.5 E16.56478
G1 X112.5 Y130.5 E16.59804
G1 X115.75 Y130.5 E16.70614
G1 X115.75 Y131.5 E16.7394
G0 F6000 X116.15 Y131.9
G1 F1200 X112.1 Y131.9 E16.8741
G1 X112.1 Y130.1 E16.93397
G1 X116.15 Y130.1 E17.06867
G1 X116.15 Y131.9 E17.12854
G0 F6000 X116.55 Y132.3
;TYPE:WALL-OUTER
G1 F1200 X111.7 Y132.3 E17.28985
G1 X111.7 Y129.7 E17.37633
G1 X116.55 Y129.7 E17.53764
G1 X116.55 Y132.3 E17.62412
G0 F6000 X115.95 Y131.818
G1 F2700 E12.62412
G0 F6000 X114.95 Y129.92
G0 X114.95 Y128.835
G0 X114.95 Y126.165
G0 X114.95 Y125.08
G0 X114.95 Y123.7
;TYPE:WALL-INNER
G1 F2700 E17.62412
G1 F1200 X113.3 Y123.7 E17.679
G1 X113.3 Y111.3 E18.09142
G1 X114.95 Y111.3 E18.1463
G1 X114.95 Y123.7 E18.55873
G0 F6000 X115.35 Y124.1
G1 F1200 X112.9 Y124.1 E18.64022
G1 X112.9 Y110.9 E19.07925
G1 X115.35 Y110.9 E19.16074
G1 X115.35 Y124.1 E19.59977
G0 F6000 X115.75 Y124.5
G1 F1200 X112.5 Y124.5 E19.70787
G1 X112.5 Y110.5 E20.17351
G1 X115.75 Y110.5 E20.2816
G1 X115.75 Y124.5 E20.74725
G0 F6000 X116.15 Y124.9
G1 F1200 X112.1 Y124.9 E20.88195
G1 X112.1 Y110.1 E21.3742
G1 X116.15 Y110.1 E21.5089
G1 X116.15 Y124.9 E22.00115
G0 F6000 X116.55 Y125.3
;TYPE:WALL-OUTER
G1 F1200 X111.7 Y125.3 E22.16246
G1 X111.7 Y109.7 E22.68132
G1 X116.55 Y109.7 E22.84263
G1 X116.55 Y125.3 E23.36149
G0 F6000 X116.28 Y125.03
G0 X114.84 Y123.31
G0 X114.56 Y123.31
;TYPE:SKIN
G1 F1200 X113.69 Y123.31 E23.39043
G1 X113.69 Y111.69 E23.77691
G1 X114.56 Y111.69 E23.80585
G1 X114.56 Y123.31 E24.19233
G0 F6000 X114.098 Y123.149
G1 F1200 X113.849 Y122.9 E24.20404
G0 F6000 X114.399 Y122.885
G1 F1200 X113.849 Y122.335 E24.22991
G0 F6000 X114.399 Y122.319
G1 F1200 X113.849 Y121.769 E24.25578
G0 F6000 X114.399 Y121.753
G1 F1200 X113.849 Y121.203 E24.28165
G0 F6000 X114.399 Y121.188
G1 F1200 X113.849 Y120.638 E24.30752
G0 F6000 X114.399 Y120.622
G1 F1200 X113.849 Y120.072 E24.33339
G0 F6000 X114.399 Y120.056
G1 F1200 X113.849 Y119.506 E24.35926
G0 F6000 X114.399 Y119.491
G1 F1200 X113.849 Y118.941 E24.38513
G0 F6000 X114.399 Y118.925
G1 F1200 X113.849 Y118.375 E24.41101
G0 F6000 X114.399 Y118.359
G1 F1200 X113.849 Y117.809 E24.43688
G0 F6000 X114.399 Y117.794
G1 F1200 X113.849 Y117.243 E24.46277
G0 F6000 X114.399 Y117.228
G1 F1200 X113.849 Y116.678 E24.48864
G0 F6000 X114.399 Y116.662
G1 F1200 X113.849 Y116.112 E24.51451
G0 F6000 X114.399 Y116.097
G1 F1200 X113.849 Y115.546 E24.5404
G0 F6000 X114.399 Y115.531
G1 F1200 X113.849 Y114.981 E24.56627
G0 F6000 X114.399 Y114.965
G1 F1200 X113.849 Y114.415 E24.59214
G0 F6000 X114.399 Y114.399
G1 F1200 X113.849 Y113.849 E24.61801
G0 F6000 X114.399 Y113.834
G1 F1200 X113.849 Y113.284 E24.64389
G0 F6000 X114.399 Y113.268
G1 F1200 X113.849 Y112.718 E24.66976
G0 F6000 X114.399 Y112.702
G1 F1200 X113.849 Y112.152 E24.69563
G0 F6000 X114.112 Y111.85
G1 F1200 X114.399 Y112.137 E24.70913
G0 F6000 X115.14 Y112.137
G1 F2700 E19.70913
G0 F6000 X116.33 Y123.7
G0 X118.67 Y123.7
G0 X120.05 Y123.7
;TYPE:WALL-INNER
G1 F2700 E24.70913
G1 F1200 X120.05 Y111.3 E25.12155
G1 X121.7 Y111.3 E25.17643
G1 X121.7 Y123.7 E25.58886
G1 X120.05 Y123.7 E25.64374
G0 F6000 X119.65 Y124.1
G1 F1200 X119.65 Y110.9 E26.08277
G1 X122.1 Y110.9 E26.16426
G1 X122.1 Y124.1 E26.60329
G1 X119.65 Y124.1 E26.68478
G0 F6000 X119.25 Y124.5
G1 F1200 X119.25 Y110.5 E27.15042
G1 X122.5 Y110.5 E27.25851
G1 X122.5 Y124.5 E27.72416
G1 X119.25 Y124.5 E27.83225
G0 F6000 X118.85 Y124.9
G1 F1200 X118.85 Y110.1 E28.3245
G1 X122.9 Y110.1 E28.45921
G1 X122.9 Y124.9 E28.95146
G1 X118.85 Y124.9 E29.08616
G0 F6000 X118.45 Y125.3
;TYPE:WALL-OUTER
G1 F1200 X118.45 Y109.7 E29.60502
G1 X123.3 Y109.7 E29.76633
G1 X123.3 Y125.3 E30.28519
G1 X118.45 Y125.3 E30.4465
G0 F6000 X118.72 Y125.03
G0 X120.16 Y123.31
G0 X120.44 Y123.31
;TYPE:SKIN
G1 F1200 X120.44 Y111.69 E30.83298
G1 X121.31 Y111.69 E30.86192
G1 X121.31 Y123.31 E31.2484
G1 X120.44 Y123.31 E31.27734
G0 F6000 X120.886 Y123.149
G1 F1200 X120.599 Y122.861 E31.29086
G0 F6000 X121.15 Y122.847
G1 F1200 X120.599 Y122.296 E31.31678
G0 F6000 X121.15 Y122.281
G1 F1200 X120.599 Y121.73 E31.34269
G0 F6000 X121.15 Y121.715
G1 F1200 X120.599 Y121.164 E31.36861
