;FLAVOR:Marlin
;TIME:5791
;Filament used: 3.47451m
;Layer height: 0.2
;MINX:77.532
;MINY:95.013
;MINZ:0.2
;MAXX:157.474
;MAXY:139.995
;MAXZ:26
;Generated with Cura_SteamEngine 4.7.1
M140 S60
M105
M190 S60
M104 S200
M105
M109 S200
M82 ;absolute extrusion mode
; Ender 3 Custom Start G-code
G92 E0 ; Reset Extruder
G28 ; Home all axes
G1 Z2.0 F3000 ; Move Z Axis up little to prevent scratching of Heat Bed
G1 X0.1 Y20 Z0.3 F5000.0 ; Move to start position
G1 X0.1 Y200.0 Z0.3 F1500.0 E15 ; Draw the first line
G1 X0.4 Y200.0 Z0.3 F5000.0 ; Move to side a little
G1 X0.4 Y20 Z0.3 F1500.0 E30 ; Draw the second line
G92 E0 ; Reset Extruder
G1 Z2.0 F3000 ; Move Z Axis up little to prevent scratching of Heat Bed
G1 X5 Y20 Z0.3 F5000.0 ; Move over to prevent blob squish
G92 E0
G92 E0
G1 F2700 E-5
;LAYER_COUNT:130
;LAYER:0
M107
G0 F6000 X82.19 Y112.524 Z0.2
;TYPE:SKIRT
G1 F2700 E0
G1 F1200 X82.825 Y112.069 E0.02598
G1 X83.043 Y111.924 E0.03469
G1 X83.846 Y111.438 E0.06591
G1 X84.28 Y111.2 E0.08237
G1 X111.736 Y96.601 E1.11663
G1 X111.883 Y96.524 E1.12215
G1 X112.484 Y96.216 E1.14461
G1 X113.336 Y95.824 E1.1758
G1 X114.219 Y95.506 E1.20702
G1 X115.125 Y95.265 E1.2382
G1 X116.048 Y95.101 E1.26938
G1 X116.983 Y95.017 E1.3006
G1 X117.92 Y95.013 E1.33177
G1 X118.855 Y95.089 E1.36297
G1 X119.78 Y95.244 E1.39416
G1 X120.689 Y95.477 E1.42538
G1 X121.574 Y95.787 E1.45656
G1 X122.394 Y96.153 E1.48643
G1 X122.692 Y96.301 E1.4975
G1 X122.963 Y96.441 E1.50764
G1 X150.612 Y111.143 E2.54918
G1 X151.293 Y111.518 E2.57503
G1 X152.089 Y112.001 E2.606
G1 X152.137 Y112.033 E2.60792
G1 X153.136 Y112.785 E2.64951
G1 X153.317 Y112.938 E2.65739
G1 X154.007 Y113.574 E2.6886
G1 X154.64 Y114.266 E2.7198
G1 X155.035 Y114.765 E2.74096
G1 X155.158 Y114.93 E2.74781
G1 X155.686 Y115.705 E2.779
G1 X156.146 Y116.522 E2.81018
G1 X156.431 Y117.129 E2.83249
G1 X156.506 Y117.302 E2.83876
G1 X156.842 Y118.177 E2.86993
G1 X157.091 Y119.03 E2.89949
G1 X157.152 Y119.276 E2.90792
G1 X157.338 Y120.195 E2.9391
G1 X157.446 Y121.126 E2.97028
G1 X157.474 Y122.064 E3.00149
G1 X157.447 Y122.71 E3.02299
G1 X157.429 Y122.961 E3.03136
G1 X157.322 Y123.893 E3.06256
G1 X157.136 Y124.812 E3.09375
G1 X156.912 Y125.594 E3.12081
G1 X156.824 Y125.863 E3.13022
G1 X156.494 Y126.741 E3.16142
G1 X156.091 Y127.588 E3.19261
G1 X155.827 Y128.059 E3.21057
G1 X155.713 Y128.251 E3.218
G1 X155.201 Y129.036 E3.24917
G1 X154.623 Y129.775 E3.28038
G1 X153.797 Y130.643 E3.32023
G1 X153.608 Y130.821 E3.32886
G1 X152.898 Y131.434 E3.36006
G1 X152.034 Y132.053 E3.39541
G1 X151.986 Y132.084 E3.39731
G1 X151.177 Y132.559 E3.42852
G1 X150.356 Y132.952 E3.45879
G1 X150.116 Y133.055 E3.46748
G1 X149.239 Y133.388 E3.49868
G1 X148.536 Y133.596 E3.52306
G1 X148.37 Y133.639 E3.52876
G1 X147.453 Y133.835 E3.55995
G1 X146.818 Y133.924 E3.58128
G1 X146.546 Y133.954 E3.59038
G1 X146.266 Y133.981 E3.59974
G1 X145.688 Y134.03 E3.61903
G1 X144.482 Y134.124 E3.65926
G1 X142.004 Y134.388 E3.74215
G1 X139.526 Y134.722 E3.82531
G1 X137.023 Y135.133 E3.90968
G1 X134.565 Y135.608 E3.99294
G1 X132.07 Y136.164 E4.07796
G1 X129.692 Y136.763 E4.15953
G1 X127.225 Y137.461 E4.2448
G1 X124.847 Y138.207 E4.32769
G1 X122.424 Y139.043 E4.41294
G1 X122.322 Y139.081 E4.41656
G1 X122.106 Y139.158 E4.42419
G1 X121.664 Y139.311 E4.43975
G1 X120.734 Y139.588 E4.47202
G1 X120.586 Y139.625 E4.4771
G1 X119.347 Y139.86 E4.51904
G1 X119.034 Y139.901 E4.52954
G1 X117.654 Y139.994 E4.57554
G1 X117.43 Y139.995 E4.58299
G1 X116.244 Y139.936 E4.62249
G1 X116.09 Y139.92 E4.62764
G1 X114.816 Y139.711 E4.67058
G1 X114.5 Y139.64 E4.68135
G1 X113.27 Y139.288 E4.7239
G1 X112.187 Y138.908 E4.76208
G1 X111.912 Y138.82 E4.77168
G1 X110.68 Y138.386 E4.81512
G1 X108.248 Y137.607 E4.90006
G1 X105.875 Y136.919 E4.98224
G1 X103.448 Y136.29 E5.06563
G1 X100.954 Y135.718 E5.15073
G1 X98.534 Y135.233 E5.23282
G1 X96.038 Y134.807 E5.31704
G1 X93.529 Y134.453 E5.40132
G1 X91.002 Y134.168 E5.4859
G1 X88.707 Y133.975 E5.5625
G1 X88.501 Y133.956 E5.56938
G1 X88.229 Y133.928 E5.57847
G1 X87.301 Y133.792 E5.60967
G1 X86.388 Y133.578 E5.64086
G1 X85.852 Y133.413 E5.65951
G1 X85.599 Y133.328 E5.66839
G1 X84.723 Y132.992 E5.69959
G1 X83.563 Y132.405 E5.74283
G1 X83.412 Y132.317 E5.74865
G1 X82.623 Y131.811 E5.77982
G1 X82.013 Y131.349 E5.80527
G1 X81.842 Y131.21 E5.8126
G1 X81.14 Y130.588 E5.8438
G1 X80.493 Y129.908 E5.87502
G1 X79.939 Y129.219 E5.90442
G1 X79.825 Y129.065 E5.9108
G1 X79.299 Y128.288 E5.942
G1 X78.842 Y127.469 E5.9732
G1 X78.598 Y126.952 E5.99221
G1 X78.517 Y126.768 E5.9989
G1 X78.176 Y125.894 E6.0301
G1 X77.911 Y124.995 E6.06127
G1 X77.78 Y124.399 E6.08157
G1 X77.725 Y124.111 E6.09132
G1 X77.589 Y123.184 E6.12248
G1 X77.532 Y122.247 E6.15371
G1 X77.544 Y121.495 E6.17872
G1 X77.552 Y121.336 E6.18402
G1 X77.639 Y120.402 E6.21522
G1 X77.752 Y119.732 E6.23782
G1 X77.796 Y119.512 E6.24528
G1 X78.019 Y118.601 E6.27647
G1 X78.318 Y117.712 E6.30767
G1 X78.511 Y117.244 E6.32451
G1 X78.984 Y116.291 E6.35989
G1 X79.123 Y116.042 E6.36938
G1 X79.615 Y115.244 E6.40056
G1 X80.173 Y114.49 E6.43176
G1 X80.734 Y113.848 E6.46011
G1 X81.3 Y113.288 E6.48659
G1 X81.473 Y113.129 E6.49441
G1 X82.19 Y112.524 E6.52561
G0 F6000 X82.448 Y112.831
G1 F1200 X83.047 Y112.402 E6.55012
G1 X83.265 Y112.257 E6.55883
G1 X84.038 Y111.789 E6.58888
G1 X84.593 Y111.486 E6.60991
G1 X111.924 Y96.954 E7.63945
G1 X112.667 Y96.572 E7.66724
G1 X113.503 Y96.188 E7.69784
G1 X114.37 Y95.878 E7.72846
G1 X115.261 Y95.644 E7.7591
G1 X116.168 Y95.489 E7.78971
G1 X117.086 Y95.413 E7.82034
G1 X118.006 Y95.417 E7.85094
G1 X118.923 Y95.501 E7.88157
G1 X119.829 Y95.664 E7.91219
G1 X120.718 Y95.905 E7.94282
G1 X121.582 Y96.222 E7.97343
G1 X122.216 Y96.511 E7.99661
G1 X122.514 Y96.659 E8.00768
G1 X122.775 Y96.794 E8.01745
G1 X150.282 Y111.42 E9.05363
G1 X150.419 Y111.494 E9.0588
G1 X151.1 Y111.869 E9.08466
G1 X151.867 Y112.334 E9.11449
G1 X151.915 Y112.366 E9.11641
G1 X152.878 Y113.091 E9.15651
G1 X153.059 Y113.244 E9.16439
G1 X153.736 Y113.868 E9.19501
G1 X154.356 Y114.549 E9.22564
G1 X154.715 Y115.004 E9.24492
G1 X154.838 Y115.169 E9.25176
G1 X155.355 Y115.93 E9.28236
G1 X155.805 Y116.733 E9.31298
G1 X156.064 Y117.288 E9.33335
G1 X156.139 Y117.461 E9.33962
G1 X156.469 Y118.321 E9.37026
G1 X156.702 Y119.126 E9.39813
G1 X156.763 Y119.372 E9.40656
G1 X156.946 Y120.274 E9.43717
G1 X157.05 Y121.189 E9.4678
G1 X157.073 Y122.109 E9.49841
G1 X157.048 Y122.681 E9.51745
G1 X157.03 Y122.932 E9.52582
G1 X156.924 Y123.847 E9.55646
G1 X156.74 Y124.749 E9.58708
G1 X156.532 Y125.47 E9.61204
G1 X156.444 Y125.739 E9.62145
G1 X156.12 Y126.601 E9.65208
G1 X155.722 Y127.431 E9.68269
G1 X155.483 Y127.855 E9.69888
G1 X155.369 Y128.047 E9.70631
G1 X154.865 Y128.817 E9.73692
G1 X154.297 Y129.541 E9.76753
G1 X153.522 Y130.352 E9.80484
G1 X153.333 Y130.53 E9.81347
G1 X152.636 Y131.131 E9.84408
G1 X151.817 Y131.717 E9.87758
G1 X151.769 Y131.748 E9.87948
G1 X150.974 Y132.214 E9.91013
G1 X150.198 Y132.585 E9.93873
G1 X149.958 Y132.688 E9.94742
G1 X149.097 Y133.014 E9.97804
G1 X148.436 Y133.208 E10.00095
G1 X148.27 Y133.251 E10.00666
G1 X147.37 Y133.443 E10.03726
G1 X146.774 Y133.526 E10.05728
G1 X146.502 Y133.556 E10.06638
G1 X146.232 Y133.582 E10.0754
G1 X145.657 Y133.631 E10.0946
G1 X144.477 Y133.723 E10.13396
G1 X141.949 Y133.992 E10.21852
G1 X139.44 Y134.33 E10.30272
G1 X136.954 Y134.738 E10.38651
G1 X134.473 Y135.218 E10.47056
G1 X132.025 Y135.763 E10.55398
G1 X129.558 Y136.385 E10.6386
G1 X127.144 Y137.068 E10.72204
G1 X124.67 Y137.844 E10.80828
G1 X122.281 Y138.669 E10.89234
G1 X121.975 Y138.78 E10.90317
G1 X121.533 Y138.933 E10.91872
G1 X120.637 Y139.2 E10.94982
G1 X120.489 Y139.237 E10.95489
G1 X119.295 Y139.463 E10.99531
G1 X118.982 Y139.504 E11.00581
G1 X117.652 Y139.594 E11.05015
G1 X117.428 Y139.595 E11.0576
G1 X116.286 Y139.538 E11.09563
G1 X116.132 Y139.522 E11.10078
G1 X114.903 Y139.321 E11.1422
G1 X114.587 Y139.25 E11.15297
G1 X113.403 Y138.911 E11.19393
G1 X112.18 Y138.482 E11.23704
G1 X112.045 Y138.443 E11.24171
G1 X110.798 Y138.004 E11.28568
G1 X108.376 Y137.228 E11.37027
G1 X105.981 Y136.534 E11.45321
G1 X103.524 Y135.897 E11.53763
G1 X101.051 Y135.33 E11.62202
G1 X98.615 Y134.842 E11.70465
G1 X96.089 Y134.411 E11.78988
G1 X93.558 Y134.053 E11.8749
G1 X91.079 Y133.773 E11.95787
G1 X88.741 Y133.577 E12.03591
G1 X88.27 Y133.53 E12.05165
G1 X87.359 Y133.396 E12.08228
G1 X86.463 Y133.184 E12.1129
G1 X85.979 Y133.034 E12.12975
G1 X85.726 Y132.949 E12.13863
G1 X84.867 Y132.618 E12.16925
G1 X83.765 Y132.059 E12.21035
G1 X83.614 Y131.971 E12.21616
G1 X82.839 Y131.474 E12.24678
G1 X82.265 Y131.038 E12.27076
G1 X82.094 Y130.899 E12.27809
G1 X81.405 Y130.288 E12.30871
G1 X80.773 Y129.62 E12.3393
G1 X80.26 Y128.981 E12.36656
G1 X80.146 Y128.827 E12.37293
G1 X79.631 Y128.064 E12.40355
G1 X79.184 Y127.259 E12.43417
G1 X78.964 Y126.791 E12.45137
G1 X78.883 Y126.607 E12.45806
G1 X78.549 Y125.749 E12.48868
G1 X78.291 Y124.865 E12.51931
G1 X78.173 Y124.324 E12.53773
G1 X78.118 Y124.036 E12.54748
G1 X77.985 Y123.125 E12.5781
G1 X77.931 Y122.206 E12.60872
G1 X77.943 Y121.515 E12.6317
G1 X77.951 Y121.356 E12.637
G1 X78.038 Y120.44 E12.6676
G1 X78.144 Y119.81 E12.68885
G1 X78.188 Y119.59 E12.69631
G1 X78.407 Y118.696 E12.72693
G1 X78.871 Y117.42 E12.77209
G1 X79.333 Y116.486 E12.80674
G1 X79.472 Y116.237 E12.81623
G1 X79.956 Y115.454 E12.84684
G1 X80.505 Y114.715 E12.87746
G1 X81.025 Y114.122 E12.9037
G1 X81.571 Y113.583 E12.92921
G1 X81.744 Y113.424 E12.93703
G1 X82.448 Y112.831 E12.96764
G0 F6000 X82.706 Y113.137
G1 F1200 X83.268 Y112.735 E12.99063
G1 X83.486 Y112.59 E12.99933
G1 X84.231 Y112.14 E13.02828
G1 X84.78 Y111.839 E13.04911
G1 X112.111 Y97.307 E14.07865
G1 X112.849 Y96.928 E14.10624
G1 X113.67 Y96.552 E14.13628
G1 X114.521 Y96.25 E14.16631
G1 X115.396 Y96.025 E14.19636
G1 X116.287 Y95.878 E14.22639
G1 X117.188 Y95.81 E14.25645
G1 X118.091 Y95.822 E14.28648
G1 X118.989 Y95.914 E14.31651
G1 X119.876 Y96.085 E14.34655
G1 X120.744 Y96.334 E14.37659
G1 X121.587 Y96.659 E14.40664
G1 X122.038 Y96.87 E14.4232
G1 X122.336 Y97.018 E14.43426
G1 X122.588 Y97.147 E14.44368
G1 X150.095 Y111.773 E15.47986
G1 X150.907 Y112.219 E15.51067
G1 X151.645 Y112.667 E15.53938
G1 X151.693 Y112.699 E15.5413
G1 X152.62 Y113.396 E15.57988
G1 X152.801 Y113.549 E15.58776
G1 X153.464 Y114.162 E15.61779
G1 X154.07 Y114.831 E15.64782
G1 X154.394 Y115.243 E15.66525
G1 X154.517 Y115.408 E15.67209
G1 X155.024 Y116.155 E15.70212
G1 X155.463 Y116.944 E15.73215
G1 X155.697 Y117.447 E15.7506
G1 X155.772 Y117.62 E15.75688
G1 X156.095 Y118.464 E15.78693
G1 X156.314 Y119.222 E15.81317
G1 X156.375 Y119.468 E15.8216
G1 X156.554 Y120.353 E15.85164
G1 X156.653 Y121.251 E15.88168
G1 X156.672 Y122.154 E15.91172
G1 X156.649 Y122.653 E15.92834
G1 X156.631 Y122.904 E15.93671
G1 X156.526 Y123.801 E15.96675
G1 X156.343 Y124.685 E15.99677
G1 X156.151 Y125.345 E16.01963
G1 X156.063 Y125.614 E16.02905
G1 X155.745 Y126.459 E16.05908
G1 X155.14 Y127.65 E16.10351
G1 X155.026 Y127.842 E16.11093
G1 X154.531 Y128.598 E16.14099
G1 X153.971 Y129.306 E16.17101
G1 X153.248 Y130.06 E16.20576
G1 X153.059 Y130.238 E16.21439
G1 X152.375 Y130.828 E16.24444
G1 X151.6 Y131.381 E16.2761
G1 X151.552 Y131.412 E16.278
G1 X150.772 Y131.868 E16.30805
G1 X150.041 Y132.217 E16.335
G1 X149.801 Y132.32 E16.34368
G1 X148.956 Y132.639 E16.37372
G1 X148.336 Y132.821 E16.39521
G1 X148.17 Y132.864 E16.40092
G1 X147.286 Y133.052 E16.43098
G1 X146.73 Y133.129 E16.44965
G1 X146.458 Y133.159 E16.45875
G1 X146.199 Y133.184 E16.4674
G1 X145.626 Y133.232 E16.48653
G1 X144.44 Y133.325 E16.5261
G1 X141.885 Y133.596 E16.61155
G1 X139.398 Y133.932 E16.69502
G1 X136.885 Y134.344 E16.77972
G1 X134.409 Y134.823 E16.8636
G1 X131.92 Y135.377 E16.94841
G1 X129.448 Y136 E17.0332
G1 X127.02 Y136.688 E17.11713
G1 X124.557 Y137.46 E17.20298
G1 X122.167 Y138.285 E17.28708
G1 X121.845 Y138.402 E17.29847
G1 X121.403 Y138.555 E17.31403
G1 X120.54 Y138.811 E17.34397
G1 X120.392 Y138.848 E17.34904
G1 X119.243 Y139.067 E17.38795
G1 X118.93 Y139.108 E17.39845
G1 X117.651 Y139.194 E17.44108
G1 X117.427 Y139.195 E17.44853
G1 X116.327 Y139.14 E17.48516
G1 X116.173 Y139.124 E17.49031
G1 X114.991 Y138.931 E17.53015
G1 X114.675 Y138.86 E17.54092
G1 X113.535 Y138.533 E17.58037
G1 X112.349 Y138.117 E17.62217
G1 X112.178 Y138.065 E17.62811
G1 X110.948 Y137.631 E17.6715
G1 X108.504 Y136.849 E17.75684
G1 X106.079 Y136.146 E17.84082
G1 X103.617 Y135.508 E17.92541
G1 X101.14 Y134.94 E18.00993
G1 X98.689 Y134.449 E18.09307
G1 X96.147 Y134.015 E18.17885
G1 X93.623 Y133.658 E18.26363
G1 X91.09 Y133.372 E18.34841
G1 X88.774 Y133.178 E18.42571
G1 X88.311 Y133.132 E18.44119
G1 X87.417 Y133 E18.47124
G1 X86.539 Y132.79 E18.50127
G1 X86.107 Y132.655 E18.51632
G1 X85.854 Y132.57 E18.5252
G1 X85.011 Y132.245 E18.55525
G1 X83.966 Y131.714 E18.59424
G1 X83.815 Y131.626 E18.60005
G1 X83.056 Y131.137 E18.63008
G1 X82.517 Y130.728 E18.65259
G1 X82.346 Y130.589 E18.65991
G1 X81.671 Y129.989 E18.68995
G1 X81.052 Y129.331 E18.72
G1 X80.582 Y128.743 E18.74504
G1 X80.468 Y128.589 E18.75141
G1 X79.963 Y127.84 E18.78145
G1 X79.527 Y127.049 E18.8115
G1 X79.331 Y126.63 E18.82688
G1 X79.25 Y126.446 E18.83357
G1 X78.923 Y125.604 E18.86361
G1 X78.671 Y124.736 E18.89367
G1 X78.566 Y124.249 E18.91024
G1 X78.511 Y123.961 E18.91999
G1 X78.381 Y123.068 E18.95001
G1 X78.331 Y122.166 E18.98005
G1 X78.343 Y121.535 E19.00105
G1 X78.351 Y121.376 E19.00634
G1 X78.436 Y120.477 E19.03637
G1 X78.536 Y119.889 E19.05621
G1 X78.58 Y119.669 E19.06367
G1 X78.796 Y118.792 E19.09372
G1 X79.237 Y117.581 E19.13658
G1 X79.683 Y116.681 E19.16999
G1 X79.822 Y116.432 E19.17947
G1 X80.296 Y115.664 E19.20949
G1 X80.837 Y114.941 E19.23953
G1 X81.316 Y114.396 E19.26366
G1 X81.842 Y113.877 E19.28824
G1 X82.015 Y113.718 E19.29605
G1 X82.706 Y113.137 E19.32608
G1 F2700 E14.32608
G0 F6000 X117.273 Y109.801
G1 F2700 E19.32608
G1 F1200 X117.345 Y109.741 E19.32919
G1 X117.408 Y109.712 E19.3315
G1 X117.46 Y109.701 E19.33327
G1 X117.5 Y109.699 E19.3346
G1 X117.574 Y109.707 E19.33708
G1 X117.634 Y109.73 E19.33921
G1 X117.693 Y109.768 E19.34155
G1 X117.727 Y109.801 E19.34312
G1 X117.756 Y109.842 E19.34479
G1 X117.79 Y109.929 E19.3479
G1 X117.796 Y109.994 E19.35007
G1 X117.788 Y110.065 E19.35245
G1 X117.77 Y110.12 E19.35437
G1 X117.73 Y110.183 E19.35686
G1 X117.687 Y110.225 E19.35886
G1 X117.637 Y110.258 E19.36085
G1 X117.56 Y110.285 E19.36356
G1 X117.5 Y110.291 E19.36557
G1 X117.44 Y110.285 E19.36757
G1 X117.363 Y110.258 E19.37029
G1 X117.313 Y110.225 E19.37228
G1 X117.27 Y110.183 E19.37428
G1 X117.23 Y110.12 E19.37676
G1 X117.212 Y110.065 E19.37869
G1 X117.204 Y109.994 E19.38106
G1 X117.21 Y109.929 E19.38323
G1 X117.23 Y109.867 E19.3854
G1 X117.244 Y109.842 E19.38635
G1 X117.273 Y109.801 E19.38802
G0 F6000 X116.959 Y109.552
G1 F1200 X117.007 Y109.499 E19.3904
G1 X117.057 Y109.454 E19.39264
G1 X117.13 Y109.403 E19.3956
G1 X117.192 Y109.369 E19.39795
G1 X117.274 Y109.334 E19.40092
G1 X117.338 Y109.316 E19.40313
G1 X117.419 Y109.302 E19.40586
G1 X117.5 Y109.298 E19.40856
G1 X117.581 Y109.302 E19.41126
G1 X117.662 Y109.316 E19.41399
G1 X117.726 Y109.334 E19.4162
G1 X117.808 Y109.369 E19.41917
G1 X117.87 Y109.403 E19.42152
G1 X117.943 Y109.454 E19.42448
G1 X117.993 Y109.499 E19.42672
G1 X118.041 Y109.552 E19.4291
G1 X118.093 Y109.625 E19.43208
G1 X118.132 Y109.695 E19.43474
G1 X118.157 Y109.756 E19.43694
G1 X118.181 Y109.839 E19.43981
G1 X118.193 Y109.909 E19.44217
G1 X118.197 Y109.99 E19.44487
G1 X118.192 Y110.078 E19.4478
G1 X118.179 Y110.157 E19.45046
G1 X118.16 Y110.223 E19.45275
G1 X118.13 Y110.295 E19.45534
G1 X118.087 Y110.372 E19.45828
G1 X118.05 Y110.425 E19.46043
G1 X117.992 Y110.49 E19.46332
G1 X117.939 Y110.537 E19.46568
G1 X117.869 Y110.586 E19.46852
G1 X117.805 Y110.621 E19.47095
G1 X117.736 Y110.65 E19.47344
G1 X117.65 Y110.675 E19.47642
G1 X117.583 Y110.686 E19.47867
G1 X117.5 Y110.691 E19.48144
G1 X117.417 Y110.686 E19.4842
G1 X117.35 Y110.675 E19.48646
G1 X117.264 Y110.65 E19.48944
G1 X117.195 Y110.621 E19.49193
G1 X117.131 Y110.586 E19.49436
G1 X117.061 Y110.537 E19.4972
