;FLAVOR:Marlin
;TIME:2063
;Filament used: 1.12985m
;Layer height: 0.2
;MINX:93.331
;MINY:89
;MINZ:0.2
;MAXX:141.663
;MAXY:145.99
;MAXZ:11
;Generated with Cura_SteamEngine 4.7.1
M140 S60
M105
M190 S60
M104 S200
M105
M109 S200
M82 ;absolute extrusion mode
; Ender 3 Custom Start G-code
G92 E0 ; Reset Extruder
G28 ; Home all axes
G1 Z2.0 F3000 ; Move Z Axis up little to prevent scratching of Heat Bed
G1 X0.1 Y20 Z0.3 F5000.0 ; Move to start position
G1 X0.1 Y200.0 Z0.3 F1500.0 E15 ; Draw the first line
G1 X0.4 Y200.0 Z0.3 F5000.0 ; Move to side a little
G1 X0.4 Y20 Z0.3 F1500.0 E30 ; Draw the second line
G92 E0 ; Reset Extruder
G1 Z2.0 F3000 ; Move Z Axis up little to prevent scratching of Heat Bed
G1 X5 Y20 Z0.3 F5000.0 ; Move over to prevent blob squish
G92 E0
G92 E0
G1 F2700 E-5
;LAYER_COUNT:55
;LAYER:0
M107
G0 F6000 X97.829 Y93.893 Z0.2
;TYPE:SKIRT
G1 F2700 E0
G1 F1200 X97.981 Y93.738 E0.00722
G1 X98.414 Y93.321 E0.02721
G1 X98.67 Y93.087 E0.03875
G1 X99.123 Y92.695 E0.05868
G1 X99.305 Y92.546 E0.0665
G1 X99.79 Y92.17 E0.08691
G1 X99.997 Y92.019 E0.09543
G1 X100.454 Y91.703 E0.11391
G1 X100.706 Y91.538 E0.12393
G1 X101.18 Y91.245 E0.14246
G1 X101.415 Y91.109 E0.15149
G1 X101.62 Y90.994 E0.15931
G1 X102.065 Y90.758 E0.17607
G1 X102.284 Y90.648 E0.18422
G1 X103.01 Y90.316 E0.21077
G1 X103.384 Y90.161 E0.22423
G1 X103.823 Y89.99 E0.2399
G1 X103.949 Y89.944 E0.24437
G1 X104.722 Y89.694 E0.27139
G1 X105.216 Y89.554 E0.28846
G1 X105.955 Y89.372 E0.31378
G1 X106.136 Y89.334 E0.31993
G1 X106.665 Y89.236 E0.33782
G1 X106.916 Y89.196 E0.34628
G1 X107.532 Y89.116 E0.36694
G1 X107.905 Y89.078 E0.37941
G1 X108.392 Y89.039 E0.39566
G1 X108.462 Y89.035 E0.39799
G1 X108.909 Y89.018 E0.41287
G1 X109.944 Y89.001 E0.4473
G1 X116.493 Y89 E0.66512
G1 X116.682 Y89.002 E0.6714
G1 X117.79 Y89.021 E0.70826
G1 X118.485 Y89.055 E0.7314
G1 X118.758 Y89.077 E0.74051
G1 X119.324 Y89.137 E0.75944
G1 X119.527 Y89.164 E0.76626
G1 X120.155 Y89.266 E0.78742
G1 X120.576 Y89.347 E0.80168
G1 X121.141 Y89.471 E0.82091
G1 X121.242 Y89.496 E0.82438
G1 X121.929 Y89.69 E0.84812
G1 X122.439 Y89.852 E0.86592
G1 X123.363 Y90.192 E0.89866
G1 X123.693 Y90.334 E0.91061
G1 X124.07 Y90.504 E0.92437
G1 X124.616 Y90.769 E0.94455
G1 X124.826 Y90.878 E0.95242
G1 X125.432 Y91.218 E0.97553
G1 X125.711 Y91.386 E0.98637
G1 X126.214 Y91.707 E1.00621
G1 X126.41 Y91.84 E1.01409
G1 X126.938 Y92.222 E1.03577
G1 X127.215 Y92.435 E1.04739
G1 X127.653 Y92.79 E1.06614
G1 X127.783 Y92.901 E1.07183
G1 X128.289 Y93.361 E1.09457
G1 X128.628 Y93.689 E1.11026
G1 X129.181 Y94.264 E1.13679
G1 X129.265 Y94.358 E1.14099
G1 X129.605 Y94.758 E1.15845
G1 X129.893 Y95.113 E1.17365
G1 X130.336 Y95.697 E1.19803
G1 X130.425 Y95.823 E1.20316
G1 X130.734 Y96.285 E1.22165
G1 X130.948 Y96.623 E1.23495
G1 X131.344 Y97.301 E1.26107
G1 X131.481 Y97.556 E1.2707
G1 X131.747 Y98.085 E1.29039
G1 X131.848 Y98.3 E1.29829
G1 X132.057 Y98.773 E1.31549
G1 X132.167 Y99.039 E1.32506
G1 X132.407 Y99.674 E1.34764
G1 X132.49 Y99.916 E1.35615
G1 X132.635 Y100.371 E1.37204
G1 X132.702 Y100.598 E1.37991
G1 X132.782 Y100.884 E1.38978
G1 X133.488 Y103.538 E1.48113
G1 X134.21 Y105.966 E1.56538
G1 X135.001 Y108.378 E1.6498
G1 X135.843 Y110.719 E1.73255
G1 X136.761 Y113.059 E1.81615
G1 X137.75 Y115.385 E1.90022
G1 X138.792 Y117.657 E1.98335
G1 X139.545 Y119.172 E2.03962
G1 X139.985 Y120.075 E2.07303
G1 X140.113 Y120.347 E2.08303
G1 X140.28 Y120.715 E2.09647
G1 X140.474 Y121.17 E2.11293
G1 X140.605 Y121.497 E2.12464
G1 X140.805 Y122.037 E2.14379
G1 X140.908 Y122.339 E2.15441
G1 X141.031 Y122.72 E2.16772
G1 X141.113 Y123.002 E2.17749
G1 X141.203 Y123.325 E2.18864
G1 X141.329 Y123.819 E2.2056
G1 X141.379 Y124.037 E2.21304
G1 X141.373 Y124.038 E2.21324
G1 X141.422 Y124.231 E2.21986
G1 X141.577 Y125.156 E2.25106
G1 X141.659 Y126.454 E2.29432
G1 X141.663 Y127.421 E2.32648
G1 X141.662 Y127.615 E2.33293
G1 X141.656 Y128.037 E2.34697
G1 X141.658 Y128.222 E2.35312
G1 X141.659 Y129.469 E2.3946
G1 X141.62 Y130.406 E2.42579
G1 X141.501 Y131.337 E2.45701
G1 X141.369 Y131.987 E2.47907
G1 X141.291 Y132.32 E2.49044
G1 X141.206 Y132.658 E2.50203
G1 X141.165 Y132.811 E2.5073
G1 X141.034 Y133.26 E2.52286
G1 X140.936 Y133.572 E2.53374
G1 X140.759 Y134.092 E2.55201
G1 X140.651 Y134.384 E2.56236
G1 X140.527 Y134.703 E2.57374
G1 X140.395 Y135.02 E2.58517
G1 X140.257 Y135.336 E2.59663
G1 X140.056 Y135.77 E2.61254
G1 X139.893 Y136.103 E2.62487
G1 X139.611 Y136.642 E2.64511
G1 X139.457 Y136.917 E2.65559
G1 X139.204 Y137.345 E2.67213
G1 X139.009 Y137.659 E2.68442
G1 X138.686 Y138.149 E2.70394
G1 X138.543 Y138.354 E2.71225
G1 X138.395 Y138.562 E2.72074
G1 X138.269 Y138.734 E2.72783
G1 X138.04 Y139.035 E2.74041
G1 X137.896 Y139.218 E2.74816
G1 X137.592 Y139.588 E2.76409
G1 X137.365 Y139.852 E2.77567
G1 X137.047 Y140.206 E2.79149
G1 X136.82 Y140.448 E2.80253
G1 X136.383 Y140.888 E2.82315
G1 X136.09 Y141.167 E2.83661
G1 X135.668 Y141.548 E2.85552
G1 X135.428 Y141.754 E2.86604
G1 X135.019 Y142.088 E2.8836
G1 X134.726 Y142.316 E2.89595
G1 X134.268 Y142.654 E2.91488
G1 X134.046 Y142.809 E2.92389
G1 X133.795 Y142.98 E2.93399
G1 X133.681 Y143.055 E2.93853
G1 X133.431 Y143.214 E2.94838
G1 X133.16 Y143.382 E2.95899
G1 X132.73 Y143.635 E2.97558
G1 X132.458 Y143.787 E2.98595
G1 X131.941 Y144.059 E3.00538
G1 X131.603 Y144.225 E3.0179
G1 X131.112 Y144.451 E3.03588
G1 X130.776 Y144.596 E3.04805
G1 X130.288 Y144.793 E3.06555
G1 X129.99 Y144.905 E3.07614
G1 X129.39 Y145.111 E3.09724
G1 X129.056 Y145.215 E3.10888
G1 X128.57 Y145.354 E3.12569
G1 X128.203 Y145.45 E3.13831
G1 X127.705 Y145.568 E3.15533
G1 X127.432 Y145.626 E3.16461
G1 X127.099 Y145.692 E3.1759
G1 X126.708 Y145.759 E3.1891
G1 X126.395 Y145.807 E3.19963
G1 X125.901 Y145.871 E3.2162
G1 X125.584 Y145.905 E3.2268
G1 X125.002 Y145.952 E3.24622
G1 X124.612 Y145.973 E3.25921
G1 X124.061 Y145.989 E3.27755
G1 X123.783 Y145.99 E3.28679
G1 X123.429 Y145.986 E3.29857
G1 X123.121 Y145.976 E3.30882
G1 X122.802 Y145.961 E3.31944
G1 X122.261 Y145.922 E3.33748
G1 X122.023 Y145.899 E3.34543
G1 X121.746 Y145.869 E3.3547
G1 X121.566 Y145.847 E3.36073
G1 X121.266 Y145.806 E3.3708
G1 X120.98 Y145.763 E3.38042
G1 X120.464 Y145.673 E3.39784
G1 X120.148 Y145.61 E3.40856
G1 X119.639 Y145.496 E3.42591
G1 X119.338 Y145.421 E3.43622
G1 X116.457 Y144.654 E3.53538
G1 X114.058 Y144.088 E3.61737
G1 X111.593 Y143.58 E3.70107
G1 X109.089 Y143.137 E3.78565
G1 X107.694 Y142.931 E3.83255
G1 X106.845 Y142.795 E3.86115
G1 X106.497 Y142.733 E3.87291
G1 X106.109 Y142.658 E3.88605
G1 X105.529 Y142.53 E3.90581
G1 X105.345 Y142.484 E3.91211
G1 X104.694 Y142.299 E3.93462
G1 X104.337 Y142.186 E3.94708
G1 X103.75 Y141.982 E3.96775
G1 X103.542 Y141.903 E3.97515
G1 X103.059 Y141.706 E3.9925
G1 X102.82 Y141.602 E4.00117
G1 X102.354 Y141.387 E4.01824
G1 X102.042 Y141.229 E4.02987
G1 X101.792 Y141.098 E4.03926
G1 X101.362 Y140.86 E4.0556
G1 X101.168 Y140.747 E4.06307
G1 X100.627 Y140.411 E4.08425
G1 X100.372 Y140.242 E4.09443
G1 X99.811 Y139.844 E4.1173
G1 X99.556 Y139.651 E4.12794
G1 X99.097 Y139.284 E4.14749
G1 X98.917 Y139.132 E4.15532
G1 X98.533 Y138.792 E4.17238
G1 X98.252 Y138.527 E4.18523
G1 X98.092 Y138.371 E4.19266
G1 X97.665 Y137.931 E4.21305
G1 X97.432 Y137.677 E4.22452
G1 X96.992 Y137.167 E4.24692
G1 X96.821 Y136.956 E4.25595
G1 X96.469 Y136.497 E4.27519
G1 X96.336 Y136.314 E4.28272
G1 X95.952 Y135.749 E4.30544
G1 X95.725 Y135.392 E4.31951
G1 X95.29 Y134.646 E4.34823
G1 X95.143 Y134.369 E4.35866
G1 X94.962 Y134.012 E4.37197
G1 X94.898 Y133.88 E4.37685
G1 X94.624 Y133.268 E4.39915
G1 X94.482 Y132.923 E4.41156
G1 X94.321 Y132.508 E4.42637
G1 X94.275 Y132.382 E4.43083
G1 X94.024 Y131.607 E4.45792
G1 X93.881 Y131.102 E4.47538
G1 X93.681 Y130.272 E4.50378
G1 X93.64 Y130.068 E4.5107
G1 X93.565 Y129.656 E4.52463
G1 X93.533 Y129.458 E4.5313
G1 X93.447 Y128.8 E4.55337
G1 X93.405 Y128.381 E4.56737
G1 X93.364 Y127.841 E4.58539
G1 X93.349 Y127.419 E4.59943
G1 X93.332 Y126.333 E4.63556
G1 X93.331 Y105.826 E5.31762
G1 X93.333 Y105.63 E5.32414
G1 X93.353 Y104.507 E5.3615
G1 X93.393 Y103.748 E5.38678
G1 X93.414 Y103.507 E5.39482
G1 X93.46 Y103.073 E5.40934
G1 X93.488 Y102.853 E5.41672
G1 X93.6 Y102.154 E5.44026
G1 X93.675 Y101.766 E5.45341
G1 X93.799 Y101.206 E5.47248
G1 X93.831 Y101.077 E5.4769
G1 X94.022 Y100.398 E5.50036
G1 X94.181 Y99.897 E5.51785
G1 X94.532 Y98.945 E5.55159
G1 X94.686 Y98.587 E5.56455
G1 X94.808 Y98.315 E5.57447
G1 X95.102 Y97.711 E5.59681
G1 X95.233 Y97.461 E5.6062
G1 X95.474 Y97.024 E5.6228
G1 X95.586 Y96.832 E5.63019
G1 X95.779 Y96.514 E5.64256
G1 X95.83 Y96.433 E5.64575
G1 X96.046 Y96.103 E5.65886
G1 X96.174 Y95.915 E5.66643
G1 X96.491 Y95.474 E5.68449
G1 X96.658 Y95.253 E5.69371
G1 X97.005 Y94.818 E5.71221
G1 X97.171 Y94.62 E5.72081
G1 X97.433 Y94.319 E5.73408
G1 X97.516 Y94.227 E5.7382
G1 X97.829 Y93.893 E5.75343
G0 F6000 X98.115 Y94.173
G1 F1200 X98.267 Y94.018 E5.76065
G1 X98.683 Y93.616 E5.77989
G1 X98.939 Y93.382 E5.79142
G1 X99.376 Y93.004 E5.81064
G1 X99.558 Y92.855 E5.81846
G1 X100.026 Y92.493 E5.83814
G1 X100.233 Y92.342 E5.84667
G1 X100.673 Y92.038 E5.86445
G1 X100.925 Y91.873 E5.87447
G1 X101.382 Y91.59 E5.89235
G1 X101.611 Y91.458 E5.90114
G1 X101.816 Y91.343 E5.90896
G1 X102.244 Y91.116 E5.92507
G1 X102.463 Y91.006 E5.93322
G1 X103.163 Y90.686 E5.95882
G1 X103.537 Y90.531 E5.97229
G1 X103.96 Y90.366 E5.98739
G1 X104.086 Y90.32 E5.99185
G1 X104.831 Y90.079 E6.01789
G1 X105.325 Y89.939 E6.03497
G1 X106.037 Y89.763 E6.05937
G1 X106.218 Y89.725 E6.06552
G1 X106.728 Y89.631 E6.08277
G1 X106.979 Y89.591 E6.09122
G1 X107.573 Y89.514 E6.11114
G1 X107.946 Y89.476 E6.12361
G1 X108.415 Y89.438 E6.13926
G1 X108.485 Y89.434 E6.14159
G1 X108.916 Y89.418 E6.15594
G1 X109.951 Y89.401 E6.19037
G1 X116.493 Y89.4 E6.40795
G1 X117.783 Y89.421 E6.45087
G1 X118.452 Y89.453 E6.47314
G1 X118.725 Y89.475 E6.48225
G1 X119.272 Y89.534 E6.50055
G1 X119.475 Y89.561 E6.50736
G1 X120.08 Y89.659 E6.52775
G1 X120.501 Y89.74 E6.54201
G1 X121.045 Y89.86 E6.56053
G1 X121.146 Y89.885 E6.564
G1 X121.808 Y90.071 E6.58687
G1 X122.318 Y90.233 E6.60466
G1 X123.208 Y90.561 E6.63621
G1 X123.528 Y90.699 E6.6478
G1 X123.905 Y90.869 E6.66156
G1 X124.431 Y91.124 E6.681
G1 X124.641 Y91.233 E6.68887
G1 X125.226 Y91.56 E6.71116
G1 X125.505 Y91.728 E6.72199
G1 X125.989 Y92.038 E6.74111
G1 X126.185 Y92.171 E6.74899
G1 X126.694 Y92.539 E6.76988
G1 X126.971 Y92.752 E6.7815
G1 X127.393 Y93.094 E6.79957
G1 X127.523 Y93.205 E6.80525
G1 X128.011 Y93.648 E6.82717
G1 X128.35 Y93.976 E6.84286
G1 X128.883 Y94.531 E6.86845
G1 X128.967 Y94.625 E6.87265
G1 X129.295 Y95.01 E6.88947
G1 X129.583 Y95.365 E6.90467
G1 X130.009 Y95.927 E6.92813
G1 X130.098 Y96.053 E6.93326
G1 X130.396 Y96.499 E6.9511
G1 X130.61 Y96.837 E6.96441
G1 X130.992 Y97.49 E6.98957
G1 X131.129 Y97.745 E6.9992
G1 X131.385 Y98.255 E7.01818
G1 X131.486 Y98.47 E7.02608
G1 X131.687 Y98.926 E7.04265
G1 X131.797 Y99.192 E7.05223
G1 X132.029 Y99.804 E7.07399
G1 X132.112 Y100.046 E7.0825
G1 X132.251 Y100.484 E7.09779
G1 X132.318 Y100.711 E7.10566
G1 X132.396 Y100.987 E7.1152
G1 X133.113 Y103.682 E7.20795
G1 X133.819 Y106.057 E7.29036
G1 X134.621 Y108.501 E7.37591
G1 X135.47 Y110.863 E7.4594
G1 X136.397 Y113.226 E7.54382
G1 X137.377 Y115.53 E7.6271
G1 X138.434 Y117.836 E7.71147
G1 X139.185 Y119.347 E7.76759
G1 X139.625 Y120.25 E7.801
G1 X139.749 Y120.513 E7.81067
G1 X139.916 Y120.881 E7.82411
G1 X140.103 Y121.319 E7.83995
G1 X140.234 Y121.646 E7.85167
G1 X140.427 Y122.166 E7.87011
G1 X140.53 Y122.468 E7.88073
G1 X140.648 Y122.838 E7.89364
G1 X140.728 Y123.11 E7.90307
G1 X140.818 Y123.433 E7.91423
G1 X140.939 Y123.908 E7.93053
G1 X140.989 Y124.126 E7.93797
G1 X140.982 Y124.128 E7.93821
G1 X141.041 Y124.363 E7.94627
G1 X141.188 Y125.272 E7.9769
G1 X141.259 Y126.456 E8.01635
G1 X141.263 Y127.423 E8.04851
G1 X141.262 Y127.61 E8.05473
G1 X141.256 Y128.044 E8.06917
G1 X141.258 Y128.222 E8.07509
G1 X141.259 Y129.469 E8.11656
G1 X141.22 Y130.389 E8.14719
G1 X141.101 Y131.302 E8.17781
G1 X140.98 Y131.895 E8.19794
G1 X140.902 Y132.228 E8.20932
G1 X140.82 Y132.555 E8.22053
G1 X140.779 Y132.708 E8.2258
G1 X140.653 Y133.14 E8.24076
G1 X140.555 Y133.452 E8.25164
G1 X140.384 Y133.953 E8.26925
G1 X140.276 Y134.245 E8.2796
G1 X140.156 Y134.555 E8.29066
G1 X140.028 Y134.86 E8.30166
G1 X139.89 Y135.176 E8.31313
G1 X139.697 Y135.594 E8.32844
G1 X139.534 Y135.927 E8.34077
G1 X139.262 Y136.446 E8.36026
G1 X139.108 Y136.721 E8.37075
G1 X138.864 Y137.134 E8.3867
G1 X138.669 Y137.448 E8.399
G1 X138.358 Y137.92 E8.4178
G1 X138.215 Y138.125 E8.42611
G1 X138.072 Y138.325 E8.43429
G1 X137.946 Y138.497 E8.44138
G1 X137.725 Y138.788 E8.45353
G1 X137.581 Y138.971 E8.46128
G1 X137.288 Y139.327 E8.47661
G1 X137.061 Y139.591 E8.48819
G1 X136.755 Y139.932 E8.50343
G1 X136.528 Y140.174 E8.51447
G1 X136.107 Y140.598 E8.53434
G1 X135.814 Y140.877 E8.5478
G1 X135.408 Y141.244 E8.566
G1 X135.168 Y141.45 E8.57652
G1 X134.774 Y141.773 E8.59346
G1 X134.481 Y142.001 E8.60581
G1 X134.039 Y142.326 E8.62406
G1 X133.817 Y142.481 E8.63306
G1 X133.575 Y142.645 E8.64279
G1 X133.461 Y142.72 E8.64733
G1 X133.22 Y142.874 E8.65684
G1 X132.949 Y143.042 E8.66744
G1 X132.535 Y143.286 E8.68343
G1 X132.263 Y143.438 E8.69379
G1 X131.765 Y143.699 E8.71249
G1 X131.427 Y143.865 E8.72502
G1 X130.954 Y144.083 E8.74234
G1 X130.618 Y144.228 E8.75451
G1 X130.147 Y144.418 E8.7714
G1 X129.849 Y144.53 E8.78199
G1 X129.271 Y144.729 E8.80232
G1 X128.937 Y144.833 E8.81396
G1 X128.468 Y144.967 E8.83018
G1 X128.101 Y145.063 E8.8428
G1 X127.622 Y145.177 E8.85917
G1 X127.349 Y145.235 E8.86846
G1 X127.024 Y145.299 E8.87947
G1 X126.648 Y145.364 E8.89217
G1 X126.335 Y145.412 E8.9027
G1 X125.858 Y145.474 E8.9187
G1 X125.541 Y145.508 E8.9293
G1 X124.981 Y145.553 E8.94799
G1 X124.591 Y145.574 E8.96098
G1 X124.059 Y145.589 E8.97868
G1 X123.781 Y145.59 E8.98792
G1 X123.436 Y145.586 E8.9994
G1 X123.14 Y145.576 E9.00925
G1 X122.821 Y145.561 E9.01987
G1 X122.299 Y145.524 E9.03728
G1 X122.061 Y145.501 E9.04523
G1 X121.795 Y145.472 E9.05413
G1 X121.615 Y145.45 E9.06016
G1 X121.325 Y145.41 E9.0699
G1 X121.039 Y145.367 E9.07952
G1 X120.542 Y145.28 E9.0963
G1 X120.226 Y145.217 E9.10702
G1 X119.736 Y145.108 E9.12371
G1 X119.435 Y145.033 E9.13403
G1 X119.098 Y144.943 E9.14563
G1 X119.054 Y144.93 E9.14716
G1 X116.58 Y144.273 E9.23229
G1 X114.159 Y143.701 E9.31503
G1 X111.638 Y143.182 E9.40064
G1 X109.151 Y142.742 E9.48464
G1 X107.757 Y142.536 E9.53151
G1 X106.908 Y142.4 E9.56011
G1 X106.573 Y142.34 E9.57143
G1 X106.185 Y142.265 E9.58457
G1 X105.626 Y142.142 E9.60361
G1 X105.442 Y142.096 E9.60992
G1 X104.814 Y141.918 E9.63163
G1 X104.457 Y141.805 E9.64408
G1 X103.892 Y141.608 E9.66398
G1 X103.684 Y141.529 E9.67138
G1 X103.219 Y141.34 E9.68808
G1 X102.98 Y141.236 E9.69675
G1 X102.531 Y141.028 E9.71321
G1 X102.228 Y140.875 E9.7245
G1 X101.978 Y140.744 E9.73388
G1 X101.563 Y140.514 E9.74966
G1 X101.369 Y140.401 E9.75713
G1 X100.848 Y140.078 E9.77752
G1 X100.593 Y139.909 E9.7877
G1 X100.052 Y139.525 E9.80976
G1 X99.797 Y139.332 E9.8204
G1 X99.355 Y138.979 E9.83921
G1 X99.175 Y138.827 E9.84705
G1 X98.805 Y138.499 E9.86349
G1 X98.531 Y138.241 E9.87601
G1 X98.371 Y138.085 E9.88344
G1 X97.96 Y137.66 E9.90311
G1 X97.727 Y137.406 E9.91457
G1 X97.303 Y136.915 E9.93615
G1 X97.132 Y136.704 E9.94518
G1 X96.792 Y136.262 E9.96373
G1 X96.659 Y136.079 E9.97125
G1 X96.289 Y135.535 E9.99314
G1 X96.062 Y135.178 E10.00721
G1 X95.644 Y134.459 E10.03487
G1 X95.497 Y134.182 E10.0453
G1 X95.322 Y133.837 E10.05816
G1 X95.258 Y133.705 E10.06304
G1 X94.994 Y133.116 E10.08451
G1 X94.852 Y132.771 E10.09692
G1 X94.697 Y132.371 E10.11119
G1 X94.651 Y132.245 E10.11565
G1 X94.409 Y131.498 E10.14177
G1 X94.266 Y130.993 E10.15922
G1 X94.073 Y130.194 E10.18656
G1 X94.032 Y129.99 E10.19348
G1 X93.96 Y129.592 E10.20694
G1 X93.928 Y129.394 E10.21361
G1 X93.845 Y128.76 E10.23487
G1 X93.803 Y128.341 E10.24888
G1 X93.763 Y127.819 E10.26629
G1 X93.749 Y127.413 E10.2798
G1 X93.732 Y126.327 E10.31593
G1 X93.731 Y105.826 E10.99779
G1 X93.733 Y105.637 E11.00408
G1 X93.753 Y104.514 E11.04144
G1 X93.791 Y103.783 E11.06578
G1 X93.812 Y103.542 E11.07383
